!!!!SEGMENT: pl-cz--iii-214--001-002_engel-jan--symfonia-in-d-mol-andante.krn
!!!cenid: 18xx:829
!!!COM: Engel, Jan
!!!COM-rismID: pe30009138
!!!CDT: <1772->1788
!!!CNT:
!!!OPR: Symfonia in D mol
!!!OTL: Andante
!!!OMV: 002
!!!PDT:
!!!AGN: Secular
!!!SMS-siglum: PL-CZ
!!!SMS-shelfmark: III-214
!!!SMS-shelfwork: 001-002 M
!!!SMS-variant:
!!!SMS-altvar:
!!!NIFC-rismSourceID: 300000296
!!!NIFC-rismChildID: 300000296
!!!NIFC-islandoraID: pl-cz:36739
!!!URL-pdf-islandora: https://repozytorium.nifc.pl/islandora/object/pl-cz%3A36739/datastream/PDF/view
!!!URL-scan: https://polish.musicsources.pl/pl/lokalizacje/galeria/rekopisy/6874/1 @EN{Scan on Polish Music Sources Website} @PL{Skany w portalu Dziedzictwo Muzyki Polskiej w otwartym dostępie}
!!!ONB-nifc: UWAGA: części Symfonii: Allegro, Andante, Allegro
!!!AIN: 2 cor 1 fagot 1 flt 2 oboe 1 organ 1 viola 2 violn
!!!key: D
**kern	**kern	**kern	**kern	**dynam	**kern	**dynam	**kern	**kern	**kern	**dynam	**kern	**dynam	**kern	**dynam
*part10	*part9	*part8	*part7	*part7	*part6	*	*part5	*part4	*part3	*part3	*part2	*part2	*part1	*part1
*group4	*group3	*group3	*group3	*	*group2	*	*group2	*group1	*group1	*	*group1	*	*group1	*
*staff10	*staff9	*staff8	*staff7	*	*staff6	*	*staff5	*staff4	*staff3	*	*staff2	*	*staff1	*
*I"Basso	*I"Alto Viola.	*I"Violino Secondo.	*I"Violino Primo.	*	*I"Cornu 2.do in F.	*	*I"Cornu 1.o in F.	*I"Fagotto.	*I"Oboe 2.do	*	*I"Oboe Primo.	*	*I"Flauto Solo.	*
*I'b	*I'a-vla	*I'vl 2	*I'vl 1	*	*I'cor 2 in D	*	*I'cor 1 in D	*I'fag	*I'ob 2	*	*I'ob 1	*	*I'fl solo	*
*Iorgan	*Iviola	*Ivioln	*Ivioln	*	*Icor	*	*Icor	*Ifagot	*Ioboe	*	*Ioboe	*	*Iflt	*
*ICklav	*ICstr	*ICstr	*ICstr	*	*ICbras	*	*ICbras	*ICww	*ICww	*	*ICww	*	*ICww	*
*clefF4	*clefC3	*clefG2	*clefG2	*	*clefG2	*	*clefG2	*clefF4	*clefG2	*	*clefG2	*	*clefG2	*
*	*	*	*	*	*ITrd6c10	*	*ITrd6c10	*	*	*	*	*	*	*
*k[f#c#]	*k[f#c#]	*k[f#c#]	*k[f#c#]	*	*k[f#c#]	*	*k[f#c#]	*k[f#c#]	*k[f#c#]	*	*k[f#c#]	*	*k[f#c#]	*
*D:	*D:	*D:	*D:	*	*D:	*	*D:	*D:	*D:	*	*D:	*	*D:	*
*M2/4	*M2/4	*M2/4	*M2/4	*	*M2/4	*	*M2/4	*M2/4	*M2/4	*	*M2/4	*	*M2/4	*
=1	=1	=1	=1	=1	=1	=1	=1	=1	=1	=1	=1	=1	=1	=1
!	!	!	!	!	!LO:TX:a:B:t=Andante	!	!LO:TX:a:B:t=Andante	!	!LO:TX:a:B:t=Andante.	!	!LO:TX:a:B:t=Andante	!	!	!
!LO:TX:a:B:t=Andante	!LO:TX:a:B:t=Andante	!LO:TX:a:t=P:problem=brak części Andante w źródle	!LO:TX:a:B:t=Andante.	!	!LO:TX:a:t=in D.	!LO:DY:a:Bi:t=for	!LO:TX:a:t=in D.	!LO:TX:a:B:t=Andante.	!LO:TX:a:t=Soli	!LO:DY:a:Bi:t=for	!LO:TX:a:t=Solo	!LO:DY:a:Bi:t=for.	!LO:TX:a:B:t=Andante.	!
!LO:N:vis=00	!LO:N:vis=00	!	!LO:N:vis=00	!	!	!	!	!	!	!	!	!	!LO:N:vis=00	!
0r	0r	2ryy	0r	.	8D/L	f	8d\L	8D\L	8d/L	f	8dd\L	f	0r	.
.	.	.	.	.	16D/L	.	16d\L	16D\L	16d/L	.	16dd\L	.	.	.
.	.	.	.	.	16D/JJ	.	16d\JJ	16D\JJ	16d/JJ	.	16dd\JJ	.	.	.
.	.	.	.	.	8A/L	.	8a\L	8A\L	8a/L	.	8aa\L	.	.	.
.	.	.	.	.	16A/L	.	16a\L	16A\L	16a/L	.	16aa\L	.	.	.
.	.	.	.	.	16A/JJ	.	16a\JJ	16A\JJ	16a/JJ	.	16aa\JJ	.	.	.
=2	=2	=2	=2	=2	=2	=2	=2	=2	=2	=2	=2	=2	=2	=2
.	.	2ryy	.	.	4d\	.	4dd\	4d\	4dd\	.	4ddd\	.	.	.
.	.	.	.	.	4A/	.	4a\	4A\	4a/	.	4aa\	.	.	.
=3	=3	=3	=3	=3	=3	=3	=3	=3	=3	=3	=3	=3	=3	=3
.	.	2ryy	.	.	16.d/LL	.	16.dd\LL	16.d\LL	16.dd/LL	.	16.ddd\LL	.	.	.
.	.	.	.	.	32A/K	.	32a\K	32A\K	32a/K	.	32aa\K	.	.	.
.	.	.	.	.	16.F#/	.	16.f#\	16.F#\	16.f#/	.	16.ff#\	.	.	.
.	.	.	.	.	32D/JJk	.	32d\JJk	32D\JJk	32d/JJk	.	32dd\JJk	.	.	.
!	!	!	!	!	!	!	!LO:TX:t=P:problem=mixed beam	!LO:TX:t=P:problem=mixed beam	!	!	!LO:TX:t=P:problem=mixed beam	!	!	!
.	.	.	.	.	8A/L	.	8a\L	8A\L	8a/L	.	8aa\L	.	.	.
.	.	.	.	.	8AA/J	.	8A/J	8AA/J	8a/J	.	8a/J	.	.	.
=4	=4	=4	=4	=4	=4	=4	=4	=4	=4	=4	=4	=4	=4	=4
.	.	2ryy	.	.	8D/L	.	8d\L	8D/L	8d/L	.	8dd\L	.	.	.
.	.	.	.	.	16.D/L	.	16.d\L	16.D/L	16.d/L	.	16.dd\L	.	.	.
.	.	.	.	.	32D/JJk	.	32d\JJk	32D/JJk	32d/JJk	.	32dd\JJk	.	.	.
.	.	.	.	.	8D/	.	8d\	8D/	8d/	.	8dd\	.	.	.
.	.	.	.	.	8r	.	8r	8r	8r	.	8r	.	.	.
!	!	!	!	!	!	!	!	!LO:LB:g=original	!	!	!	!	!	!
=5	=5	=5	=5	=5	=5	=5	=5	=5	=5	=5	=5	=5	=5	=5
!LO:N:vis=00	!LO:N:vis=00	!	!LO:N:vis=00	!	!	!	!	!	!	!	!LO:TX:b:i:t=dolce.	!	!LO:N:vis=0	!
0r	0r	2ryy	0r	.	8r	.	8r	8r	(8.dd\L	.	(8.ff#\L	.	1r	.
.	.	.	.	.	8F#/	.	8d\	8D/L	.	.	.	.	.	.
!	!	!	!	!	!	!	!	!	!LO:TX:b:i:t=dolce	!	!	!	!	!
.	.	.	.	.	.	.	.	.	32ee\LL	.	32gg\LL	.	.	.
.	.	.	.	.	.	.	.	.	32ff#\JJJ)	.	32aa\JJJ)	.	.	.
!	!	!	!	!	!	!	!	!	!	!	!LO:LB:g=original	!	!	!
.	.	.	.	.	4F#/	.	4d\	8D/	(16gg\LL	.	(16bb\LL	.	.	.
.	.	.	.	.	.	.	.	.	16ff#\)	.	16aa\)	.	.	.
.	.	.	.	.	.	.	.	8D/J	16ee'\	.	16gg'\	.	.	.
.	.	.	.	.	.	.	.	.	16dd'\JJ	.	16ff#'\JJ	.	.	.
!	!	!	!	!	!LO:LB:g=original	!	!LO:LB:g=original	!	!	!	!	!	!	!
=6	=6	=6	=6	=6	=6	=6	=6	=6	=6	=6	=6	=6	=6	=6
.	.	2ryy	.	.	8r	.	8r	8r	(8.cc#\L	.	(8.ee\L	.	.	.
.	.	.	.	.	8A/	.	8e\	8AA/L	.	.	.	.	.	.
.	.	.	.	.	.	.	.	.	32dd\LL	.	32ff#\LL	.	.	.
.	.	.	.	.	.	.	.	.	32ee\JJJ)	.	32gg\JJJ)	.	.	.
.	.	.	.	.	4A/	.	4e\	8AA/	(16ff#\LL	.	(16aa\LL	.	.	.
.	.	.	.	.	.	.	.	.	16ee\)	.	16gg\)	.	.	.
.	.	.	.	.	.	.	.	8AA/J	16dd'\	.	16ff#'\	.	.	.
.	.	.	.	.	.	.	.	.	16cc#'\JJ	.	16ee'\JJ	.	.	.
!	!	!	!	!	!	!	!	!	!LO:LB:g=original	!	!	!	!	!
=7	=7	=7	=7	=7	=7	=7	=7	=7	=7	=7	=7	=7	=7	=7
.	.	2ryy	.	.	8r	.	8r	8r	(8.f#/L	.	(8.dd\L	.	2r	.
.	.	.	.	.	8d\	.	8f#\	8D/L	.	.	.	.	.	.
.	.	.	.	.	.	.	.	.	32g/LL)	.	32ee\LL	.	.	.
.	.	.	.	.	.	.	.	.	32a/JJJ	.	32ff#\JJJ)	.	.	.
.	.	.	.	.	4d\	.	4f#\	8D/	(16b/LL	.	(16gg\LL	.	.	.
.	.	.	.	.	.	.	.	.	16a/)	.	16ff#\)	.	.	.
.	.	.	.	.	.	.	.	8D/J	16g'/	.	16ee'\	.	.	.
.	.	.	.	.	.	.	.	.	16f#'/JJ	.	16dd'\JJ	.	.	.
=8	=8	=8	=8	=8	=8	=8	=8	=8	=8	=8	=8	=8	=8	=8
!	!	!	!	!	!	!	!	!LO:TX:t=P:problem=mixed beam	!	!	!	!	!	!
.	.	2ryy	.	.	8r	.	8e\L	8A\L	8cc#\L	.	8ee\L	.	4r	.
.	.	.	.	.	16.A/LL	.	16.e\L	16.AA/L	16.cc#\L	.	16.ee\L	.	.	.
.	.	.	.	.	32A/	.	32e\JJk	32AA/JJk	32cc#\JJk	.	32ee\JJk	.	.	.
.	.	.	.	.	8A/JJ	.	8e\	8AA/	8cc#\	.	8ee\	.	8r	.
.	.	.	.	.	8r	.	8r	8r	8r	.	8r	.	8ee\	.
=9	=9	=9	=9	=9	=9	=9	=9	=9	=9	=9	=9	=9	=9	=9
*	*	*	*	*	*	*	*	*	*LO:N:vis=00	*	*	*	*2\right	*
!LO:TX:a:t=pizzicato	!	!	!LO:TX:a:t=Stoccato.	!LO:DY:b:Bi:t=po	!	!	!LO:N:vis=00	!LO:N:vis=00	!LO:N:vis=00	!	!LO:N:vis=00	!	!	!
8AA/	16r	2ryy	16r	p	0r	.	0r	0r	0r	.	0r	.	2ee\	.
.	16A'/LL	.	16e|/LL	.	.	.	.	.	.	.	.	.	.	.
8r	16e'/	.	16a|/	.	.	.	.	.	.	.	.	.	.	.
.	16a'/JJ	.	16cc#|/JJ	.	.	.	.	.	.	.	.	.	.	.
4r	16cc#'\LL	.	16ee|/LL	.	.	.	.	.	.	.	.	.	.	.
.	16a'\	.	16cc#|/	.	.	.	.	.	.	.	.	.	.	.
.	16e'\	.	16a|/	.	.	.	.	.	.	.	.	.	.	.
.	16c#'\JJ	.	16e|/JJ	.	.	.	.	.	.	.	.	.	.	.
=10	=10	=10	=10	=10	=10	=10	=10	=10	=10	=10	=10	=10	=10	=10
8AA/	16r	2ryy	16r	.	.	.	.	.	.	.	.	.	2ccc#\	.
.	16c#'\LL	.	16e/LL	.	.	.	.	.	.	.	.	.	.	.
8r	16e'\	.	16a/	.	.	.	.	.	.	.	.	.	.	.
.	16a'\JJ	.	16cc#/JJ	.	.	.	.	.	.	.	.	.	.	.
4r	16cc#|\LL	.	16ee/LL	.	.	.	.	.	.	.	.	.	.	.
.	16a'\	.	16cc#/	.	.	.	.	.	.	.	.	.	.	.
.	16e'\	.	16a/	.	.	.	.	.	.	.	.	.	.	.
.	16c#'\JJ	.	16e/JJ	.	.	.	.	.	.	.	.	.	.	.
=11	=11	=11	=11	=11	=11	=11	=11	=11	=11	=11	=11	=11	=11	=11
8AA/	4A/	2ryy	4c#/	.	.	.	.	.	.	.	.	.	16ccc#\LL	.
.	.	.	.	.	.	.	.	.	.	.	.	.	(16gg#X\	.
8r	.	.	.	.	.	.	.	.	.	.	.	.	16aa\)	.
.	.	.	.	.	.	.	.	.	.	.	.	.	(16gg#\JJ	.
4r	4r	.	4r	.	.	.	.	.	.	.	.	.	16aa\LL)	.
.	.	.	.	.	.	.	.	.	.	.	.	.	(16gg#\	.
.	.	.	.	.	.	.	.	.	.	.	.	.	16aa\)	.
.	.	.	.	.	.	.	.	.	.	.	.	.	(16ee#X\JJ	.
!	!	!	!	!	!	!	!	!	!	!	!	!	!LO:LB:g=original	!
=12	=12	=12	=12	=12	=12	=12	=12	=12	=12	=12	=12	=12	=12	=12
!	!	!	!	!	!	!	!	!	!	!	!	!	!LO:TX:t=P:problem=brak zakończenia łuku	!
8D\	4d\	2ryy	4f#/	.	.	.	.	.	.	.	.	.	16ff#\LL)	.
.	.	.	.	.	.	.	.	.	.	.	.	.	(16cc#\	.
8r	.	.	.	.	.	.	.	.	.	.	.	.	16dd\)	.
.	.	.	.	.	.	.	.	.	.	.	.	.	(16cc#\JJ	.
4r	4r	.	4r	.	.	.	.	.	.	.	.	.	16dd\LL)	.
.	.	.	.	.	.	.	.	.	.	.	.	.	(16cc#\	.
.	.	.	.	.	.	.	.	.	.	.	.	.	16dd\)	.
.	.	.	.	.	.	.	.	.	.	.	.	.	16cc#\JJ	.
=13	=13	=13	=13||:	=13	=13	=13	=13	=13	=13	=13	=13	=13	=13	=13
!	!	!	!	!	!LO:N:vis=00	!	!LO:N:vis=00	!LO:N:vis=00	!LO:N:vis=00	!	!LO:N:vis=00	!	!	!
8E\	16r	2ryy	16r	.	0r	.	0r	0r	0r	.	0r	.	2dd\	.
.	16B'\LL	.	16d/LL	.	.	.	.	.	.	.	.	.	.	.
8r	16d'\	.	16g#X/	.	.	.	.	.	.	.	.	.	.	.
.	16g#X'\JJ	.	16b/JJ	.	.	.	.	.	.	.	.	.	.	.
4r	16b'\LL	.	16dd/LL	.	.	.	.	.	.	.	.	.	.	.
.	16g#'\	.	16b/	.	.	.	.	.	.	.	.	.	.	.
.	16d'\	.	16g#/	.	.	.	.	.	.	.	.	.	.	.
.	16B'\JJ	.	16d/JJ	.	.	.	.	.	.	.	.	.	.	.
!	!LO:LB:g=original	!	!	!	!	!	!	!	!	!	!	!	!	!
=14	=14	=14	=14	=14	=14	=14	=14	=14	=14	=14	=14	=14	=14	=14
8E\	16r	2ryy	16r	.	.	.	.	.	.	.	.	.	2bb\	.
.	16B\LL	.	16d/LL	.	.	.	.	.	.	.	.	.	.	.
8r	16d\	.	16g#X/	.	.	.	.	.	.	.	.	.	.	.
.	16g#X\JJ	.	16b/JJ	.	.	.	.	.	.	.	.	.	.	.
4r	16b\LL	.	16dd/LL	.	.	.	.	.	.	.	.	.	.	.
.	16g#\	.	16b/	.	.	.	.	.	.	.	.	.	.	.
.	16d\	.	16g#/	.	.	.	.	.	.	.	.	.	.	.
.	16B\JJ	.	16d/JJ	.	.	.	.	.	.	.	.	.	.	.
!LO:LB:g=original	!	!	!LO:LB:g=original	!	!	!	!	!	!	!	!	!	!	!
=15	=15	=15	=15	=15	=15	=15	=15	=15	=15	=15	=15	=15	=15	=15
.	.	.	.	.	.	.	.	.	.	.	.	.	8qqee/	.
8E\	8G#X/	2ryy	8B/	.	.	.	.	.	.	.	.	.	(32dd\LLL	.
.	.	.	.	.	.	.	.	.	.	.	.	.	32cc#\	.
.	.	.	.	.	.	.	.	.	.	.	.	.	32dd\)	.
.	.	.	.	.	.	.	.	.	.	.	.	.	32ee\JJ	.
8r	8r	.	8r	.	.	.	.	.	.	.	.	.	8dd\J	.
4r	4r	.	4r	.	.	.	.	.	.	.	.	.	4r	.
=16	=16	=16	=16:||	=16	=16	=16	=16	=16	=16	=16	=16	=16	=16	=16
!	!LO:TX:a:t=P:problem=takty 16-19 zapisane repetycją (korekta ołówkiem)	!	!LO:TX:a:t=P:problem=t. 16-19 zapisane repetycją	!	!	!	!	!	!	!	!	!	!	!
.	.	.	.	.	.	.	.	.	.	.	.	.	8qqb/	.
8E\	16ryy	2ryy	16ryy	.	.	.	.	.	.	.	.	.	2bb\	.
.	16B'\LLyy	.	16d/LLyy	.	.	.	.	.	.	.	.	.	.	.
8r	16d'\yy	.	16g#X/yy	.	.	.	.	.	.	.	.	.	.	.
.	16g#X'\JJyy	.	16b/JJyy	.	.	.	.	.	.	.	.	.	.	.
4r	16b'\LLyy	.	16dd/LLyy	.	.	.	.	.	.	.	.	.	.	.
.	16g#'\yy	.	16b/yy	.	.	.	.	.	.	.	.	.	.	.
.	16d'\yy	.	16g#/yy	.	.	.	.	.	.	.	.	.	.	.
.	16B'\JJyy	.	16d/JJyy	.	.	.	.	.	.	.	.	.	.	.
=17	=17	=17	=17	=17	=17	=17	=17	=17	=17	=17	=17	=17	=17	=17
!	!	!	!	!	!LO:N:vis=00	!	!LO:N:vis=00	!LO:N:vis=00	!	!LO:DY:b:Bi:t=p.	!	!	!LO:TX:t=P:problem=mixed beam	!
8A\	16ryy	2ryy	16ryy	.	0r	.	0r	0r	8r	p	8r	.	8bb\L	.
.	16B\LLyy	.	16d/LLyy	.	.	.	.	.	.	.	.	.	.	.
!	!	!	!	!	!	!	!	!	!LO:SIC:v:s=8b'\L	!	!	!	!	!
8r	16d\yy	.	16g#X/yy	.	.	.	.	.	8cc#'\L	.	8ee'\L	.	(8g#X'/	.
.	16g#X\JJyy	.	16b/JJyy	.	.	.	.	.	.	.	.	.	.	.
!	!	!	!	!	!	!	!	!	!LO:SIC:v:s=8b'\	!	!	!LO:DY:b:Bi:t=p.	!	!
4r	16b\LLyy	.	16dd/LLyy	.	.	.	.	.	8cc#'\	.	8ee'\	p	8b'/	.
.	16g#\yy	.	16b/yy	.	.	.	.	.	.	.	.	.	.	.
!	!	!	!	!	!	!	!	!	!LO:SIC:v:s=8b'\J	!	!	!	!	!
.	16d\yy	.	16g#/yy	.	.	.	.	.	8cc#'\J	.	8ee'\J	.	8dd'/J)	.
.	16B\JJyy	.	16d/JJyy	.	.	.	.	.	.	.	.	.	.	.
=18	=18	=18	=18	=18	=18	=18	=18	=18	=18	=18	=18	=18	=18	=18
*	*	*	*	*	*	*	*	*	*2\right	*	*2\right	*	*	*
!LO:SIC:v:s=8E\	!	!	!	!	!	!	!	!	!LO:SIC:v:s=[2bn\	!	!	!	!	!
8A\	8G#X/yy	2ryy	8B/yy	.	.	.	.	.	[2ccn\	.	[<2ee\	.	4.dd\	.
8r	8ryy	.	8ryy	.	.	.	.	.	.	.	.	.	.	.
4r	4ryy	.	4ryy	.	.	.	.	.	.	.	.	.	.	.
.	.	.	.	.	.	.	.	.	.	.	.	.	16ee\LL	.
.	.	.	.	.	.	.	.	.	.	.	.	.	16b\JJ	.
=19	=19	=19	=19	=19	=19	=19	=19	=19	=19	=19	=19	=19	=19	=19
!LO:TX:a:t=P:problem=brak tt.19-20	!LO:TX:a:t=P::problem=wykreślony ołówkiem takt&colon; 8f/ 8r 4r	!	!LO:TX:a:t=P:problem=skreślony takt (korekta)	!	!	!	!	!	!	!	!	!	!	!
.	.	.	.	.	.	.	.	.	.	.	.	.	8qqb#X/	.
!	!	!	!	!	!	!	!	!	!LO:SIC:v:s=2b\]	!	!	!	!	!
2ryy	16r	2ryy	16r	.	.	.	.	.	2cc\]	.	2ee\]	.	4cc#\	.
.	16c#\LL	.	16e/LL	.	.	.	.	.	.	.	.	.	.	.
.	16e\	.	16a/	.	.	.	.	.	.	.	.	.	.	.
.	16a\JJ	.	16cc#/JJ	.	.	.	.	.	.	.	.	.	.	.
.	16cc#\LL	.	16ee/LL	.	.	.	.	.	.	.	.	.	4r	.
.	16a\	.	16cc#/	.	.	.	.	.	.	.	.	.	.	.
.	16e\	.	16a/	.	.	.	.	.	.	.	.	.	.	.
.	16c#\JJ	.	16e/JJ	.	.	.	.	.	.	.	.	.	.	.
!	!	!	!	!	!	!	!	!	!	!	!	!	!LO:LB:g=original	!
=20	=20	=20	=20	=20	=20	=20	=20	=20	=20	=20	=20	=20	=20	=20
!	!	!	!	!	!	!	!	!	!LO:TX:t=P:problem=brak taktu	!	!LO:TX:a:t=P:problem=brak taktu	!	!	!
2ryy	16r	2ryy	16r	.	.	.	.	.	2ryy	.	2ryy	.	4.aa\	.
.	16cn\LL	.	16e/LL	.	.	.	.	.	.	.	.	.	.	.
.	16e\	.	16a/	.	.	.	.	.	.	.	.	.	.	.
.	16a\JJ	.	16ccn/JJ	.	.	.	.	.	.	.	.	.	.	.
.	16ccn\LL	.	16ee/LL	.	.	.	.	.	.	.	.	.	.	.
.	16a\	.	16cc/	.	.	.	.	.	.	.	.	.	.	.
.	16e\	.	16a/	.	.	.	.	.	.	.	.	.	8ee\	.
.	16c\JJ	.	16e/JJ	.	.	.	.	.	.	.	.	.	.	.
!	!	!	!	!	!	!	!	!	!	!	!LO:LB:g=original	!	!	!
=21	=21	=21	=21	=21	=21	=21	=21	=21	=21	=21	=21	=21	=21	=21
!	!	!	!	!	!LO:N:vis=00	!	!LO:N:vis=00	!	!	!	!	!	!	!
8Fn\	16r	2ryy	16r	.	0r	.	0r	0r	[2a/	.	2ffn\	.	4.cccn\	.
!	!LO:SIC:v:s=16cn\LL	!	!	!	!	!	!	!	!	!	!	!	!	!
.	16c#\LL	.	16fn/LL	.	.	.	.	.	.	.	.	.	.	.
8r	16fn\	.	16a/	.	.	.	.	.	.	.	.	.	.	.
!	!	!	!LO:TX:a:t=P:problem=♮ below	!	!	!	!	!	!	!	!	!	!	!
.	16a\JJ	.	16ccn/JJ	.	.	.	.	.	.	.	.	.	.	.
4r	16ccn\LL	.	16ffn/LL	.	.	.	.	.	.	.	.	.	.	.
.	16a\	.	16ccn/	.	.	.	.	.	.	.	.	.	.	.
.	16f\	.	16a/	.	.	.	.	.	.	.	.	.	8aa\	.
!	!LO:SIC:v:s=16cn\JJ	!	!	!	!	!	!	!	!	!	!	!	!	!
.	16c#\JJ	.	16f/JJ	.	.	.	.	.	.	.	.	.	.	.
=22	=22	=22	=22	=22	=22	=22	=22	=22	=22	=22	=22	=22	=22	=22
.	.	.	.	.	.	.	.	.	.	.	.	.	16qqgg/	.
!LO:SIC:v:s=8F\	!	!	!	!	!	!	!	!	!	!	!LO:SIC:v:s=2ffn\	!	!	!
8F#\	16r	2ryy	16r	.	.	.	.	.	2a/]	.	2ff#\	.	(32ffn\LLL	.
.	.	.	.	.	.	.	.	.	.	.	.	.	32gg\	.
.	16cn\LL	.	16fn/LL	.	.	.	.	.	.	.	.	.	32ff\)	.
.	.	.	.	.	.	.	.	.	.	.	.	.	32ee\JJ	.
8r	16fn\	.	16a/	.	.	.	.	.	.	.	.	.	8ff\J	.
.	16a\JJ	.	16ccn/JJ	.	.	.	.	.	.	.	.	.	.	.
!	!LO:SIC:v:s=16ccn\LL	!	!	!	!	!	!	!	!	!	!	!	!	!
4r	16cc#\LL	.	16ffn/LL	.	.	.	.	.	.	.	.	.	8r	.
.	16a\	.	16cc/	.	.	.	.	.	.	.	.	.	.	.
.	16f\	.	16a/	.	.	.	.	.	.	.	.	.	(16ff\LL	.
.	16c\JJ	.	16f/JJ	.	.	.	.	.	.	.	.	.	16aa\JJ)	.
!	!LO:LB:g=original	!	!	!	!	!	!	!	!	!	!	!	!	!
=23	=23	=23	=23	=23	=23	=23	=23	=23	=23	=23	=23	=23	=23	=23
!	!	!	!	!	!	!	!	!	!LO:N:vis=00	!	!LO:N:vis=00	!	!	!
8D#X\	16r	2ryy	16r	.	.	.	.	.	0r	.	0r	.	(8cccn'\L	.
.	16cn\LL	.	16f#X/LL	.	.	.	.	.	.	.	.	.	.	.
8r	16f#X\	.	16a/	.	.	.	.	.	.	.	.	.	8ccc'\	.
.	16a\JJ	.	16dd#X/JJ	.	.	.	.	.	.	.	.	.	.	.
4r	16ccn\LL	.	16ff#X/LL	.	.	.	.	.	.	.	.	.	8ccc'\	.
.	16a\	.	16dd#/	.	.	.	.	.	.	.	.	.	.	.
.	16f#\	.	16a/	.	.	.	.	.	.	.	.	.	8ccc'\J)	.
.	16c\JJ	.	16f#/JJ	.	.	.	.	.	.	.	.	.	.	.
=24	=24	=24	=24	=24	=24	=24	=24	=24	=24	=24	=24	=24	=24	=24
!LO:SIC:v:s=8D#\	!	!	!	!	!	!	!	!	!	!	!	!	!LO:SIC:v:s=4.cccn\	!
8D\	16r	2ryy	16r	.	.	.	.	.	.	.	.	.	4.ccc#\	.
.	16A\LL	.	16f#/LL	.	.	.	.	.	.	.	.	.	.	.
8r	16f#X\	.	16a/	.	.	.	.	.	.	.	.	.	.	.
.	16a\JJ	.	16dd#X/JJ	.	.	.	.	.	.	.	.	.	.	.
!	!LO:TX:t=P:problem=mixed beam	!	!LO:LB:g=original	!	!	!	!	!	!	!	!	!	!	!
4r	16ccn\LL	.	16ff#/LL	.	.	.	.	.	.	.	.	.	.	.
.	16a\	.	16dd#/	.	.	.	.	.	.	.	.	.	.	.
.	16f#\	.	16a/	.	.	.	.	.	.	.	.	.	16bb\LL	.
.	16A/JJ	.	16f#/JJ	.	.	.	.	.	.	.	.	.	16aa\JJ	.
=25	=25	=25	=25	=25	=25	=25	=25	=25	=25	=25	=25	=25	=25	=25
.	.	.	.	.	.	.	.	.	.	.	.	.	8qqaa/	.
!	!	!	!	!	!LO:N:vis=00	!	!LO:N:vis=00	!LO:N:vis=00	!	!	!	!	!	!
8E\	16r	2ryy	16r	.	0r	.	0r	0r	.	.	.	.	8gg#X\	.
.	16e'\LL	.	16g#X'/LL	.	.	.	.	.	.	.	.	.	.	.
8r	16e'\	.	16g#'/	.	.	.	.	.	.	.	.	.	8r	.
.	16e'\JJ	.	16g#'/JJ	.	.	.	.	.	.	.	.	.	.	.
4r	16e\LL	.	16g#/LL	.	.	.	.	.	.	.	.	.	4r	.
.	(16f#X\	.	(16a/	.	.	.	.	.	.	.	.	.	.	.
.	16g#X\)	.	16b/)	.	.	.	.	.	.	.	.	.	.	.
.	16a\JJ	.	16cc#X/JJ	.	.	.	.	.	.	.	.	.	.	.
=26	=26	=26	=26	=26	=26	=26	=26	=26	=26	=26	=26	=26	=26	=26
8E\	16r	2ryy	16r	.	.	.	.	.	.	.	.	.	16r	.
.	16b'\LL	.	16dd\LL	.	.	.	.	.	.	.	.	.	16ddd'\LL	.
8r	16b'\	.	16dd\	.	.	.	.	.	.	.	.	.	16ddd'\	.
.	16b'\JJ	.	16dd\JJ	.	.	.	.	.	.	.	.	.	16ddd'\JJ	.
4r	(16b\LL	.	16dd\LL	.	.	.	.	.	.	.	.	.	(16ddd\LL	.
!	!	!	!LO:SIC:v:s=(16ccn\	!	!	!	!	!	!	!	!	!	!	!
.	16a\)	.	(16cc#\	.	.	.	.	.	.	.	.	.	16cccn\	.
.	16g#X\	.	16b\)	.	.	.	.	.	.	.	.	.	16bb\)	.
.	16f#\JJ	.	16a\JJ	.	.	.	.	.	.	.	.	.	16aa\JJ	.
!	!	!	!	!	!	!	!	!	!	!	!	!	!LO:LB:g=original	!
=27	=27	=27	=27	=27	=27	=27	=27	=27	=27	=27	=27	=27	=27	=27
!	!	!	!	!	!	!	!	!	!LO:N:vis=00	!	!LO:N:vis=00	!	!	!
8E\	16r	2ryy	16r	.	.	.	.	.	0r	.	0r	.	8gg#X\	.
.	16e'\LL	.	16g#X/LL	.	.	.	.	.	.	.	.	.	.	.
8r	16e'\	.	16g#/	.	.	.	.	.	.	.	.	.	8r	.
.	16e'\JJ	.	16g#/JJ	.	.	.	.	.	.	.	.	.	.	.
4r	16e\LL	.	16g#/LL	.	.	.	.	.	.	.	.	.	4r	.
.	16f#\	.	(16a/	.	.	.	.	.	.	.	.	.	.	.
.	16g#X\	.	16b/)	.	.	.	.	.	.	.	.	.	.	.
.	16a\JJ	.	16cc#/JJ	.	.	.	.	.	.	.	.	.	.	.
=28	=28	=28	=28	=28	=28	=28	=28	=28	=28	=28	=28	=28	=28	=28
8E\	8b\	2ryy	8dd\	.	.	.	.	.	.	.	.	.	16r	.
.	.	.	.	.	.	.	.	.	.	.	.	.	16ddd'\LL	.
8r	8r	.	8r	.	.	.	.	.	.	.	.	.	16ddd'\	.
.	.	.	.	.	.	.	.	.	.	.	.	.	16ddd'\JJ	.
4r	4r	.	4r	.	.	.	.	.	.	.	.	.	16ddd\LL	.
.	.	.	.	.	.	.	.	.	.	.	.	.	16ccc#\	.
.	.	.	.	.	.	.	.	.	.	.	.	.	16bb\	.
.	.	.	.	.	.	.	.	.	.	.	.	.	16aa\JJ	.
=29	=29	=29	=29	=29	=29	=29	=29	=29	=29	=29	=29	=29	=29	=29
!LO:N:vis=0	!	!	!	!	!LO:N:vis=00	!	!LO:N:vis=00	!LO:N:vis=00	!	!	!	!	!	!
1r	16r	2ryy	16r	.	0r	.	0r	0r	.	.	.	.	2gg#X\	.
.	(16e'\LL	.	16b'\LL	.	.	.	.	.	.	.	.	.	.	.
.	16e'\	.	16b'\	.	.	.	.	.	.	.	.	.	.	.
.	16e'\JJ)	.	16b'\JJ	.	.	.	.	.	.	.	.	.	.	.
.	4e\	.	16b\LL	.	.	.	.	.	.	.	.	.	.	.
.	.	.	(16cc#\	.	.	.	.	.	.	.	.	.	.	.
.	.	.	16dd\)	.	.	.	.	.	.	.	.	.	.	.
.	.	.	16ee\JJ	.	.	.	.	.	.	.	.	.	.	.
!	!LO:LB:g=original	!	!	!	!	!	!	!	!	!	!	!	!	!
=30	=30	=30	=30	=30	=30	=30	=30	=30	=30	=30	=30	=30	=30	=30
.	16r	2ryy	16r	.	.	.	.	.	.	.	.	.	2ggn\	.
.	(16c#'/LL	.	16ee\LL	.	.	.	.	.	.	.	.	.	.	.
.	16c#'/	.	16ee\	.	.	.	.	.	.	.	.	.	.	.
.	16c#'/JJ)	.	16ee\JJ	.	.	.	.	.	.	.	.	.	.	.
!	!	!	!LO:TX:t=P:problem=mixed beam	!	!	!	!	!	!	!	!	!	!	!
.	4c#/	.	16ee\LL	.	.	.	.	.	.	.	.	.	.	.
.	.	.	16gn/	.	.	.	.	.	.	.	.	.	.	.
.	.	.	16f#/	.	.	.	.	.	.	.	.	.	.	.
.	.	.	16e/JJ	.	.	.	.	.	.	.	.	.	.	.
!LO:LB:g=original	!	!	!	!	!	!	!	!	!	!	!	!	!	!
=31	=31	=31	=31	=31	=31	=31	=31	=31	=31	=31	=31	=31	=31	=31
!	!	!	!	!	!	!	!	!	!LO:N:vis=00	!	!LO:N:vis=00	!	!	!
8D\	16r	2ryy	16r	.	.	.	.	.	0r	.	0r	.	4.ff#\	.
.	16d\LL	.	16f#/LL	.	.	.	.	.	.	.	.	.	.	.
8r	16f#\	.	16b/	.	.	.	.	.	.	.	.	.	.	.
.	16a\JJ	.	16dd/JJ	.	.	.	.	.	.	.	.	.	.	.
4r	16dd\LL	.	16ff#/LL	.	.	.	.	.	.	.	.	.	.	.
.	16a\	.	16dd/	.	.	.	.	.	.	.	.	.	.	.
.	16f#\	.	16b/	.	.	.	.	.	.	.	.	.	8ddd\	.
.	16d\JJ	.	16f#/JJ	.	.	.	.	.	.	.	.	.	.	.
!	!	!	!LO:LB:g=original	!	!	!	!	!	!	!	!	!	!	!
=32	=32	=32	=32	=32	=32	=32	=32	=32	=32	=32	=32	=32	=32	=32
8E\	16r	2ryy	16r	.	.	.	.	.	.	.	.	.	8ccc#\	.
.	16c#\LL	.	16e/LL	.	.	.	.	.	.	.	.	.	.	.
8r	16e\	.	16a/	.	.	.	.	.	.	.	.	.	8r	.
.	16a\JJ	.	16cc#/JJ	.	.	.	.	.	.	.	.	.	.	.
4r	16cc#\LL	.	16ee/LL	.	.	.	.	.	.	.	.	.	8aa\	.
.	16a\	.	16cc#/	.	.	.	.	.	.	.	.	.	.	.
.	16e\	.	16a/	.	.	.	.	.	.	.	.	.	8r	.
.	16c#\JJ	.	16e/JJ	.	.	.	.	.	.	.	.	.	.	.
=33	=33	=33	=33	=33	=33	=33	=33	=33	=33	=33	=33	=33	=33	=33
8EE/	16r	2ryy	16r	.	2r	.	2r	2r	.	.	.	.	8bb\	.
.	16B\LL	.	16d/LL	.	.	.	.	.	.	.	.	.	.	.
8r	16d\	.	16g#X/	.	.	.	.	.	.	.	.	.	8r	.
.	16g#X\JJ	.	16b/JJ	.	.	.	.	.	.	.	.	.	.	.
4r	16b\LL	.	16dd/LL	.	.	.	.	.	.	.	.	.	8gg#X\	.
.	16g#\	.	16b/	.	.	.	.	.	.	.	.	.	.	.
.	16d\	.	16g#/	.	.	.	.	.	.	.	.	.	8r	.
.	16B\JJ	.	16d/JJ	.	.	.	.	.	.	.	.	.	.	.
=34	=34	=34	=34	=34	=34	=34	=34	=34	=34	=34	=34	=34	=34	=34
!	!	!	!	!	!LO:TX:t=P:problem=brak taktu	!	!LO:TX:t=P:problem=brak taktu	!LO:TX:t=P:problem=brak taktu	!	!	!	!	!	!
8AA/	8A/	2ryy	8c#/	.	2ryy	.	2ryy	2ryy	.	.	.	.	4.aa\	.
8r	8r	.	8r	.	.	.	.	.	.	.	.	.	.	.
4r	4r	.	4r	.	.	.	.	.	.	.	.	.	.	.
.	.	.	.	.	.	.	.	.	.	.	.	.	8a/	.
!	!	!	!	!	!	!	!	!	!	!	!	!	!LO:LB:g=original	!
=35	=35	=35	=35	=35	=35	=35	=35	=35	=35	=35	=35	=35	=35	=35
!LO:N:vis=00	!LO:N:vis=00	!	!LO:N:vis=00	!	!LO:TX:t=P:problem=brak taktu	!	!LO:TX:t=P:problem=brak taktu	!LO:TX:t=P:problem=brak taktu	!	!	!	!	!	!
0r	0r	2ryy	0r	.	2ryy	.	2ryy	2ryy	2r	.	2r	.	(8b-X\L	.
.	.	.	.	.	.	.	.	.	.	.	.	.	8bn\	.
.	.	.	.	.	.	.	.	.	.	.	.	.	8ccn\	.
.	.	.	.	.	.	.	.	.	.	.	.	.	8cc#X\J)	.
=36	=36	=36	=36	=36	=36	=36	=36	=36	=36	=36	=36	=36	=36	=36
!	!	!	!	!	!	!	!	!	!LO:TX:a:t=S.	!LO:DY:a:Bi:t=for	!	!LO:DY:a:Bi:t=for.	!	!
.	.	2ryy	.	.	8D/L	.	8d\L	8D\L	8d/L	f	8dd\L	f	8dd\	.
!	!	!	!	!	!	!	!LO:N:vis=16.	!	!	!	!	!	!	!
.	.	.	.	.	16D/L	.	16d\L	16D\L	16d/L	.	16dd\L	.	8r	.
.	.	.	.	.	16D/JJ	.	16d\JJ	16D\JJ	16d/JJ	.	16dd\JJ	.	.	.
.	.	.	.	.	8A/L	.	8a\L	8A\L	8a/L	.	8aa\L	.	4r	.
.	.	.	.	.	16A/L	.	16a\L	16A\L	16a/L	.	16aa\L	.	.	.
.	.	.	.	.	16A/JJ	.	16a\JJ	16A\JJ	16a/JJ	.	16aa\JJ	.	.	.
!	!	!	!	!	!	!	!	!LO:LB:g=original	!	!	!	!	!	!
=37	=37	=37	=37	=37	=37	=37	=37	=37	=37	=37	=37	=37	=37	=37
!	!	!	!	!	!	!	!	!	!	!	!	!	!LO:N:vis=00	!
.	.	2ryy	.	.	4d\	.	4dd\	4d\	4dd\	.	4ddd\	.	0r	.
.	.	.	.	.	4A/	.	4a\	4A\	4a/	.	4aa\	.	.	.
=38	=38	=38	=38	=38	=38	=38	=38	=38	=38	=38	=38	=38	=38	=38
.	.	2ryy	.	.	16.d/LL	.	16.dd\LL	16.d\LL	16.dd/LL	.	16.ddd\LL	.	.	.
.	.	.	.	.	32A/K	.	32a\K	32A\K	32a/K	.	32aa\K	.	.	.
.	.	.	.	.	16.F#/	.	16.f#\	16.F#\	16.f#/	.	16.ff#\	.	.	.
.	.	.	.	.	32D/JJk	.	32d\JJk	32D\JJk	32d/JJk	.	32dd\JJk	.	.	.
!	!	!	!	!	!	!	!LO:TX:t=P:problem=mixed beam	!LO:TX:t=P:problem=mixed beam	!	!	!LO:TX:t=P:problem=mixed beam	!	!	!
.	.	.	.	.	8A/L	.	8a\L	8A\L	8a/L	.	8aa\L	.	.	.
.	.	.	.	.	8AA/J	.	8A/J	8AA/J	8a/J	.	8a/J	.	.	.
!	!	!	!	!	!LO:LB:g=original	!	!	!	!LO:LB:g=original	!	!	!	!	!
=39	=39	=39	=39	=39	=39	=39	=39	=39	=39	=39	=39	=39	=39	=39
!LO:N:vis=00	!LO:N:vis=00	!	!LO:N:vis=00	!	!	!	!	!	!	!	!	!	!	!
0r	0r	2ryy	0r	.	8D/L	.	8d\L	8D/L	8d/L	.	8dd\L	.	.	.
.	.	.	.	.	16.D/L	.	16.d\L	16.D/L	16.d/L	.	16.dd\L	.	.	.
.	.	.	.	.	32D/JJk	.	32d\JJk	32D/JJk	32d/JJk	.	32dd\JJk	.	.	.
.	.	.	.	.	8D/	.	8d\	8D/	8d/	.	8dd\	.	.	.
.	.	.	.	.	8r	.	8r	8r	8r	.	8r	.	.	.
!	!	!	!	!	!	!	!LO:LB:g=original	!	!	!	!	!	!	!
=40	=40	=40	=40	=40	=40	=40	=40	=40	=40	=40	=40	=40	=40	=40
!	!	!	!	!	!	!	!	!	!LO:TX:b:i:t=dolce	!	!LO:TX:b:i:t=dolce.	!	!	!
.	.	2ryy	.	.	8r	.	8r	8r	(8.dd\L	.	(8.ff#\L	.	.	.
.	.	.	.	.	8F#/	.	8d\	8D/L	.	.	.	.	.	.
.	.	.	.	.	.	.	.	.	32ee\LL	.	32gg\LL	.	.	.
.	.	.	.	.	.	.	.	.	32ff#\JJJ)	.	32aa\JJJ)	.	.	.
!	!	!	!	!	!	!	!	!	!	!	!LO:LB:g=original	!	!	!
.	.	.	.	.	4F#/	.	4d\	8D/	(16gg\LL	.	(16bb\LL	.	.	.
.	.	.	.	.	.	.	.	.	16ff#\)	.	16aa\)	.	.	.
.	.	.	.	.	.	.	.	8D/J	16ee'\	.	16gg'\	.	.	.
.	.	.	.	.	.	.	.	.	16dd'\JJ	.	16ff#'\JJ	.	.	.
=41	=41	=41	=41	=41	=41	=41	=41	=41	=41	=41	=41	=41	=41	=41
!	!	!	!	!	!	!	!	!	!	!	!	!	!LO:N:vis=0	!
.	.	2ryy	.	.	8r	.	8r	8r	(8.cc#\L	.	(8.ee\L	.	1r	.
.	.	.	.	.	8A/	.	8e\	8AA/L	.	.	.	.	.	.
.	.	.	.	.	.	.	.	.	32dd\LL	.	32ff#\LL	.	.	.
.	.	.	.	.	.	.	.	.	32ee\JJJ)	.	32gg\JJJ)	.	.	.
.	.	.	.	.	4A/	.	4e\	8AA/	(16ff#\LL	.	(16aa\LL	.	.	.
.	.	.	.	.	.	.	.	.	16ee\)	.	16gg\)	.	.	.
.	.	.	.	.	.	.	.	8AA/J	16dd'\	.	16ff#'\	.	.	.
.	.	.	.	.	.	.	.	.	16cc#'\JJ	.	16ee'\JJ	.	.	.
=42	=42	=42	=42	=42	=42	=42	=42	=42	=42	=42	=42	=42	=42	=42
.	.	2ryy	.	.	8r	.	8r	8r	(8.f#/L	.	(8.dd\L	.	.	.
.	.	.	.	.	8d\	.	8f#\	8D/L	.	.	.	.	.	.
.	.	.	.	.	.	.	.	.	32g/LL	.	32ee\LL	.	.	.
.	.	.	.	.	.	.	.	.	32a/JJJ)	.	32ff#\JJJ)	.	.	.
.	.	.	.	.	4d\	.	4f#\	8D/	(16b/LL	.	(16gg\LL	.	.	.
.	.	.	.	.	.	.	.	.	16a/)	.	16ff#\)	.	.	.
.	.	.	.	.	.	.	.	8D/J	16g'/	.	16ee'\	.	.	.
.	.	.	.	.	.	.	.	.	16f#'/JJ	.	16dd'\JJ	.	.	.
!	!	!	!	!	!	!	!	!LO:LB:g=original	!	!	!	!	!	!
=43	=43	=43	=43	=43	=43	=43	=43	=43	=43	=43	=43	=43	=43	=43
!	!	!	!	!	!	!	!	!LO:TX:t=P:problem=mixed beam	!	!	!	!	!	!
2r	2r	2ryy	2r	.	8r	.	8r	8A\L	8cc#\L	.	8ee\L	.	2r	.
.	.	.	.	.	16.A/LL	.	16.e\LL	16.AA/L	16.cc#\L	.	16.ee\L	.	.	.
.	.	.	.	.	32A/	.	32e\	32AA/JJk	32cc#\JJk	.	32ee\JJk	.	.	.
.	.	.	.	.	8A/JJ	.	8e\JJ	8AA/	8cc#\	.	8ee\	.	.	.
.	.	.	.	.	8r	.	8r	8r	8r	.	8r	.	.	.
=44	=44	=44	=44	=44	=44	=44	=44	=44	=44	=44	=44	=44	=44	=44
!LO:TX:t=P:problem=brak taktu	!LO:TX:t=P:problem=brak taktu	!LO:TX:t=P:problem=brak taktu	!LO:TX:t=P:problem=brak taktu	!	!	!	!	!	!	!	!	!	!LO:TX:t=P:problem=brak taktu	!
!	!	!	!	!	!LO:N:vis=00	!	!LO:N:vis=00	!LO:N:vis=00	!LO:N:vis=00	!	!LO:N:vis=00	!	!	!
2ryy	2ryy	2ryy	2ryy	.	0r	.	0r	0r	0r	.	0r	.	2ryy	.
=45	=45	=45	=45	=45	=45	=45	=45	=45	=45	=45	=45	=45	=45	=45
!	!	!	!	!LO:DY:a:Bi:t=po	!	!	!	!	!	!	!LO:N:vis=00	!	!	!
8AA/	16r	2ryy	16r	p	.	.	.	.	.	.	.	.	4r	.
.	16c#'\LL	.	16e/LL	.	.	.	.	.	.	.	.	.	.	.
8r	16e'\	.	16a/	.	.	.	.	.	.	.	.	.	.	.
.	16a'\JJ	.	16cc#/JJ	.	.	.	.	.	.	.	.	.	.	.
4r	16cc#'\LL	.	16ee/LL	.	.	.	.	.	.	.	.	.	8r	.
.	16a'\	.	16cc#/	.	.	.	.	.	.	.	.	.	.	.
.	16e'\	.	16a/	.	.	.	.	.	.	.	.	.	8ee\	.
.	16c#'\JJ	.	16e/JJ	.	.	.	.	.	.	.	.	.	.	.
=46	=46	=46	=46	=46	=46	=46	=46	=46	=46	=46	=46	=46	=46	=46
8AA/	16r	2ryy	16r	.	.	.	.	.	.	.	.	.	8ee\L	.
.	16c#'\LL	.	16e/LL	.	.	.	.	.	.	.	.	.	.	.
8r	16e'\	.	16a/	.	.	.	.	.	.	.	.	.	32ee\LL	.
.	.	.	.	.	.	.	.	.	.	.	.	.	(32ff#\	.
.	16a'\JJ	.	16cc#/JJ	.	.	.	.	.	.	.	.	.	32ee\)	.
.	.	.	.	.	.	.	.	.	.	.	.	.	32dd\JJJ	.
4r	16cc#'\LL	.	16ee/LL	.	.	.	.	.	.	.	.	.	8cc#\	.
.	16a'\	.	16cc#/	.	.	.	.	.	.	.	.	.	.	.
.	16e'\	.	16a/	.	.	.	.	.	.	.	.	.	8r	.
.	16c#'\JJ	.	16e/JJ	.	.	.	.	.	.	.	.	.	.	.
=47	=47	=47	=47	=47	=47	=47	=47	=47	=47	=47	=47	=47	=47	=47
8GG/	16r	2ryy	16r	.	.	.	.	.	.	.	.	.	8r	.
.	16c#'\LL	.	16e/LL	.	.	.	.	.	.	.	.	.	.	.
8r	16e'\	.	16gn/	.	.	.	.	.	.	.	.	.	8cc#\L	.
.	16g'\JJ	.	16cc#/JJ	.	.	.	.	.	.	.	.	.	.	.
4r	16cc#'\LL	.	16ee/LL	.	.	.	.	.	.	.	.	.	8ee\	.
.	16g'\	.	16cc#/	.	.	.	.	.	.	.	.	.	.	.
.	16e'\	.	16g/	.	.	.	.	.	.	.	.	.	8ggn\J	.
.	16c#'\JJ	.	16e/JJ	.	.	.	.	.	.	.	.	.	.	.
!	!LO:LB:g=original	!	!	!	!	!	!	!	!	!	!	!	!	!
=48	=48	=48	=48	=48	=48	=48	=48	=48	=48	=48	=48	=48	=48	=48
!	!	!	!	!	!LO:N:vis=00	!	!LO:N:vis=00	!LO:N:vis=00	!LO:N:vis=0	!	!LO:N:vis=0	!	!	!
8G\	16r	2ryy	16r	.	0r	.	0r	0r	1r	.	1r	.	16gg\LL	.
.	16c#\LL	.	16e/LL	.	.	.	.	.	.	.	.	.	16cc#X\JJ	.
8r	16e\	.	16g/	.	.	.	.	.	.	.	.	.	4cc#\	.
.	16g\JJ	.	16cc#/JJ	.	.	.	.	.	.	.	.	.	.	.
4r	16cc#\LL	.	16ee/LL	.	.	.	.	.	.	.	.	.	.	.
.	16g\	.	16cc#/	.	.	.	.	.	.	.	.	.	.	.
.	16e\	.	16g/	.	.	.	.	.	.	.	.	.	(32cc#\LLL	.
.	.	.	.	.	.	.	.	.	.	.	.	.	32b\	.
.	16c#\JJ	.	16e/JJ	.	.	.	.	.	.	.	.	.	32cc#\)	.
.	.	.	.	.	.	.	.	.	.	.	.	.	32dd\JJJ	.
!	!	!	!LO:LB:g=original	!	!	!	!	!	!	!	!	!	!	!
=49	=49	=49	=49||:	=49	=49	=49	=49	=49	=49	=49	=49	=49	=49	=49
!	!	!	!LO:TX:a:t=P:problem=skreślony takt (korekta)	!	!	!	!	!	!	!	!	!	!	!
8F#\	16r	2ryy	16r	.	.	.	.	.	.	.	.	.	4.ee\	.
.	16c#\LL	.	16e/LL	.	.	.	.	.	.	.	.	.	.	.
8r	16f#\	.	16a#X/	.	.	.	.	.	.	.	.	.	.	.
.	16a#X\JJ	.	16cc#/JJ	.	.	.	.	.	.	.	.	.	.	.
4r	16cc#\LL	.	16ee/LL	.	.	.	.	.	.	.	.	.	.	.
.	16a#\	.	16cc#/	.	.	.	.	.	.	.	.	.	.	.
.	16f#\	.	16a#/	.	.	.	.	.	.	.	.	.	(16ccc#\LL	.
.	16c#\JJ	.	16e/JJ	.	.	.	.	.	.	.	.	.	16bb\JJ)	.
!	!	!	!	!	!	!	!	!	!LO:PB:g=original	!	!	!	!LO:LB:g=original	!
=50	=50	=50	=50:||	=50	=50	=50	=50	=50	=50	=50	=50	=50	=50	=50
!	!	!	!LO:TX:a:t=P:problem=t. 49 zapisany repetycją	!	!	!	!	!	!	!	!	!LO:DY:b:Bi:t=p.	!	!
8F#\	16r	2ryy	16ryy	.	.	.	.	.	8r	.	8r	p	8aa#X'\L	.
.	16c#\LL	.	16e/LLyy	.	.	.	.	.	.	.	.	.	.	.
!	!	!	!	!	!	!	!	!	!	!LO:DY:b:Bi:t=p.	!LO:SIC:v:s=(8ee'\L	!	!	!
8r	16f#\	.	16a#X/yy	.	.	.	.	.	8dd'\L	p	(8ff#'\L	.	8ggn'\	.
.	16a#X\JJ	.	16cc#/JJyy	.	.	.	.	.	.	.	.	.	.	.
!	!	!	!	!	!	!	!	!	!	!	!LO:SIC:v:s=8ee'\	!	!	!
4r	16cc#\LL	.	16ee/LLyy	.	.	.	.	.	8dd'\	.	8ff#'\	.	8ff#'\	.
.	16a#\	.	16cc#/yy	.	.	.	.	.	.	.	.	.	.	.
!	!	!	!	!	!	!	!	!	!	!	!LO:SIC:v:s=8ee\J)	!	!	!
.	16f#\	.	16a#/yy	.	.	.	.	.	8dd'\J	.	8ff#'\J)	.	8ee'\J	.
.	16c#\JJ	.	16e/JJyy	.	.	.	.	.	.	.	.	.	.	.
!LO:LB:g=original	!	!	!	!	!	!	!	!	!	!	!	!	!	!
=51	=51	=51	=51	=51	=51	=51	=51	=51	=51	=51	=51	=51	=51	=51
*	*	*	*	*	*	*	*	*	*	*	*	*	*Xtuplet	*
!	!	!	!	!	!	!	!	!	!	!	!	!	!LO:TUP:a:problem=klamra łukowa	!
8BB/	16r	2ryy	16r	.	.	.	.	.	2dd\	.	2ff#\	.	24ee\LL	.
.	.	.	.	.	.	.	.	.	.	.	.	.	24ff#\	.
.	16B\LL	.	16d/LL	.	.	.	.	.	.	.	.	.	.	.
.	.	.	.	.	.	.	.	.	.	.	.	.	24dd\J	.
8r	16d\	.	16f#/	.	.	.	.	.	.	.	.	.	8dd\J	.
.	16f#\JJ	.	16b/JJ	.	.	.	.	.	.	.	.	.	.	.
4r	16b\LL	.	16dd/LL	.	.	.	.	.	.	.	.	.	4r	.
.	16f#\	.	16b/	.	.	.	.	.	.	.	.	.	.	.
.	16d\	.	16f#/	.	.	.	.	.	.	.	.	.	.	.
.	16B\JJ	.	16d/JJ	.	.	.	.	.	.	.	.	.	.	.
!	!	!	!	!	!	!	!	!	!	!	!LO:LB:g=original	!	!	!
=52	=52	=52	=52	=52	=52	=52	=52	=52	=52	=52	=52	=52	=52	=52
!	!	!	!	!	!LO:N:vis=00	!	!LO:N:vis=00	!LO:N:vis=00	!	!	!	!	!	!
8BB/	16r	2ryy	16r	.	0r	.	0r	0r	2dd\	.	2ffn\	.	4r	.
.	16B\LL	.	16d/LL	.	.	.	.	.	.	.	.	.	.	.
8r	16d\	.	16f#/	.	.	.	.	.	.	.	.	.	.	.
.	16f#\JJ	.	16b/JJ	.	.	.	.	.	.	.	.	.	.	.
4r	16b\LL	.	16dd/LL	.	.	.	.	.	.	.	.	.	8r	.
.	16f#\	.	16b/	.	.	.	.	.	.	.	.	.	.	.
.	16d\	.	16f#/	.	.	.	.	.	.	.	.	.	8bb\	.
.	16B\JJ	.	16d/JJ	.	.	.	.	.	.	.	.	.	.	.
=53	=53	=53	=53	=53	=53	=53	=53	=53	=53	=53	=53	=53	=53	=53
!	!	!	!	!	!	!	!	!	!	!	!LO:SIC:v:s=2ffn	!	!	!
8BB/	16r	2ryy	16r	.	.	.	.	.	2dd\	.	2ff#\	.	2bb\	.
.	16B\LL	.	16d/LL	.	.	.	.	.	.	.	.	.	.	.
8r	16d\	.	16fn/	.	.	.	.	.	.	.	.	.	.	.
.	16fn\JJ	.	16b/JJ	.	.	.	.	.	.	.	.	.	.	.
4r	16b\LL	.	16dd/LL	.	.	.	.	.	.	.	.	.	.	.
.	16f\	.	16b/	.	.	.	.	.	.	.	.	.	.	.
.	16d\	.	16f/	.	.	.	.	.	.	.	.	.	.	.
.	16B\JJ	.	16d/JJ	.	.	.	.	.	.	.	.	.	.	.
=54	=54	=54	=54	=54	=54	=54	=54	=54	=54	=54	=54	=54	=54	=54
!	!	!	!	!	!	!	!	!	!LO:N:vis=00	!	!LO:N:vis=00	!	!	!
8BB/	16r	2ryy	16r	.	.	.	.	.	0r	.	0r	.	4.ddd\	.
.	16B\LL	.	16d/LL	.	.	.	.	.	.	.	.	.	.	.
8r	16d\	.	16g#X/	.	.	.	.	.	.	.	.	.	.	.
.	16g#X\JJ	.	16b/JJ	.	.	.	.	.	.	.	.	.	.	.
4r	16b\LL	.	16dd/LL	.	.	.	.	.	.	.	.	.	.	.
.	16g#\	.	16b/	.	.	.	.	.	.	.	.	.	.	.
.	16d\	.	16g#/	.	.	.	.	.	.	.	.	.	8gg#X\	.
.	16B\JJ	.	16d/JJ	.	.	.	.	.	.	.	.	.	.	.
=55	=55	=55	=55	=55	=55	=55	=55	=55	=55	=55	=55	=55	=55	=55
8AA/	16r	2ryy	16r	.	.	.	.	.	.	.	.	.	(16aa\LL	.
.	16cn'/LL	.	16e'/LL	.	.	.	.	.	.	.	.	.	16ee\J)	.
8r	16c'/	.	16e'/	.	.	.	.	.	.	.	.	.	8ee\J	.
.	16c'/JJ	.	16e'/JJ	.	.	.	.	.	.	.	.	.	.	.
!	!LO:LB:g=original	!	!	!	!	!	!	!	!	!	!	!	!	!
4r	16d/LL	.	(16fn/LL	.	.	.	.	.	.	.	.	.	4r	.
.	(16c/	.	16e/)	.	.	.	.	.	.	.	.	.	.	.
.	16B/)	.	(16d/	.	.	.	.	.	.	.	.	.	.	.
.	16A/JJ	.	16cn/JJ)	.	.	.	.	.	.	.	.	.	.	.
!	!	!	!LO:LB:g=original	!	!	!	!	!	!	!	!	!	!	!
=56	=56	=56	=56	=56	=56	=56	=56	=56	=56	=56	=56	=56	=56	=56
!	!	!	!	!	!LO:N:vis=00	!	!LO:N:vis=00	!LO:N:vis=00	!	!	!	!	!	!
8E\	16r	2ryy	16r	.	0r	.	0r	0r	.	.	.	.	(16bb\LL	.
.	16b\LL	.	16dd'\LL	.	.	.	.	.	.	.	.	.	16ee\J)	.
8r	16b\	.	16dd'\	.	.	.	.	.	.	.	.	.	8ee\J	.
.	16b\JJ	.	16dd'\JJ	.	.	.	.	.	.	.	.	.	.	.
4r	16ccn\LL	.	16ee\LL	.	.	.	.	.	.	.	.	.	4r	.
.	(16b\	.	(16dd\	.	.	.	.	.	.	.	.	.	.	.
.	16a\)	.	16ccn\)	.	.	.	.	.	.	.	.	.	.	.
.	16g#X\JJ	.	16b\JJ	.	.	.	.	.	.	.	.	.	.	.
=57	=57	=57	=57	=57	=57	=57	=57	=57	=57	=57	=57	=57	=57	=57
8A\	8a\	2ryy	8a/	.	.	.	.	.	.	.	.	.	16r	.
.	.	.	.	.	.	.	.	.	.	.	.	.	16cccn'\LL	.
8r	8r	.	8r	.	.	.	.	.	.	.	.	.	16ccc'\	.
.	.	.	.	.	.	.	.	.	.	.	.	.	16ccc'\JJ	.
4r	4r	.	4r	.	.	.	.	.	.	.	.	.	16ccc\LL	.
.	.	.	.	.	.	.	.	.	.	.	.	.	(16bb\	.
.	.	.	.	.	.	.	.	.	.	.	.	.	16aa\)	.
.	.	.	.	.	.	.	.	.	.	.	.	.	16gg\JJ	.
=58	=58	=58	=58	=58	=58	=58	=58	=58	=58	=58	=58	=58	=58	=58
!LO:N:vis=00	!	!	!	!	!	!	!	!	!LO:N:vis=00	!	!LO:N:vis=00	!	!	!
0r	2r	2ryy	16r	.	.	.	.	.	0r	.	0r	.	(16ff#\LL	.
.	.	.	16a'/LL	.	.	.	.	.	.	.	.	.	16aa\)	.
.	.	.	16a'/	.	.	.	.	.	.	.	.	.	16aa'\	.
.	.	.	16a'/JJ	.	.	.	.	.	.	.	.	.	16aa'\JJ	.
!	!	!	!	!	!	!	!	!	!	!	!	!	!LO:LB:g=original	!
.	.	.	16a/LL	.	.	.	.	.	.	.	.	.	16aa\LL	.
.	.	.	(16g/	.	.	.	.	.	.	.	.	.	(16gg\	.
.	.	.	16f#X/)	.	.	.	.	.	.	.	.	.	16ff#\)	.
.	.	.	16e/JJ	.	.	.	.	.	.	.	.	.	16ee\JJ	.
=59	=59	=59	=59	=59	=59	=59	=59	=59	=59	=59	=59	=59	=59	=59
.	16r	2ryy	2f#X/	.	.	.	.	.	.	.	.	.	2dd#X\	.
.	16a'\LL	.	.	.	.	.	.	.	.	.	.	.	.	.
.	16a'\	.	.	.	.	.	.	.	.	.	.	.	.	.
.	16a'\JJ	.	.	.	.	.	.	.	.	.	.	.	.	.
.	16b\LL	.	.	.	.	.	.	.	.	.	.	.	.	.
.	16a\	.	.	.	.	.	.	.	.	.	.	.	.	.
.	16g\	.	.	.	.	.	.	.	.	.	.	.	.	.
.	16f#\JJ	.	.	.	.	.	.	.	.	.	.	.	.	.
=60	=60	=60	=60	=60	=60	=60	=60	=60	=60	=60	=60	=60	=60	=60
!	!	!	!	!	!LO:N:vis=00	!	!LO:N:vis=00	!LO:N:vis=00	!	!	!	!	!	!
.	8e\	2ryy	16r	.	0r	.	0r	0r	.	.	.	.	4ee\	.
.	.	.	16e/LL	.	.	.	.	.	.	.	.	.	.	.
.	8r	.	16g/	.	.	.	.	.	.	.	.	.	.	.
.	.	.	16b/JJ	.	.	.	.	.	.	.	.	.	.	.
.	4r	.	8e/	.	.	.	.	.	.	.	.	.	16r	.
.	.	.	.	.	.	.	.	.	.	.	.	.	16b'\LL	.
.	.	.	8r	.	.	.	.	.	.	.	.	.	16ee'\	.
.	.	.	.	.	.	.	.	.	.	.	.	.	16gg'\JJ	.
=61	=61	=61	=61	=61	=61	=61	=61	=61	=61	=61	=61	=61	=61	=61
.	.	.	.	.	.	.	.	.	.	.	.	.	8qqgg/	.
!	!LO:N:vis=00	!	!	!	!	!	!	!	!	!	!	!	!	!
.	0r	2ryy	16r	.	.	.	.	.	.	.	.	.	4ff#\	.
.	.	.	16d#X/LL	.	.	.	.	.	.	.	.	.	.	.
.	.	.	16f#/	.	.	.	.	.	.	.	.	.	.	.
.	.	.	16b/JJ	.	.	.	.	.	.	.	.	.	.	.
.	.	.	8d#/	.	.	.	.	.	.	.	.	.	16r	.
.	.	.	.	.	.	.	.	.	.	.	.	.	16b'\LL	.
.	.	.	8r	.	.	.	.	.	.	.	.	.	16ff#'\	.
.	.	.	.	.	.	.	.	.	.	.	.	.	16aa'\JJ	.
!	!	!	!	!	!	!	!	!	!	!	!	!	!LO:TX:a:t=X	!
=62	=62	=62	=62	=62	=62	=62	=62	=62	=62	=62	=62	=62	=62	=62
.	.	.	.	.	.	.	.	.	.	.	.	.	8qqaa/	.
!LO:N:vis=00	!	!	!	!	!	!	!	!	!LO:N:vis=00	!	!LO:N:vis=00	!	!	!
0r	.	2ryy	16r	.	.	.	.	.	0r	.	0r	.	4gg\	.
.	.	.	16e/LL	.	.	.	.	.	.	.	.	.	.	.
.	.	.	16gn/	.	.	.	.	.	.	.	.	.	.	.
.	.	.	16b/JJ	.	.	.	.	.	.	.	.	.	.	.
.	.	.	8e/	.	.	.	.	.	.	.	.	.	16r	.
.	.	.	.	.	.	.	.	.	.	.	.	.	16b'\LL	.
.	.	.	8r	.	.	.	.	.	.	.	.	.	16gg'\	.
.	.	.	.	.	.	.	.	.	.	.	.	.	16bb'\JJ	.
=63	=63	=63	=63	=63	=63	=63	=63	=63	=63	=63	=63	=63	=63	=63
.	.	2ryy	16r	.	.	.	.	.	.	.	.	.	8.bb\L	.
.	.	.	16e'/LL	.	.	.	.	.	.	.	.	.	.	.
.	.	.	16g'/	.	.	.	.	.	.	.	.	.	.	.
.	.	.	16f#'/JJ	.	.	.	.	.	.	.	.	.	16aa'\Jk	.
!	!	!	!LO:LB:g=original	!	!	!	!	!	!	!	!	!	!	!
.	.	.	16e'/LL	.	.	.	.	.	.	.	.	.	16gg'\LL	.
.	.	.	16d'/	.	.	.	.	.	.	.	.	.	16ff#'\	.
.	.	.	16c#X'/	.	.	.	.	.	.	.	.	.	16ee'\	.
.	.	.	16B'/JJ	.	.	.	.	.	.	.	.	.	16dd'\JJ	.
=64	=64	=64	=64	=64	=64	=64	=64	=64	=64	=64	=64	=64	=64	=64
.	.	.	.	.	.	.	.	.	.	.	.	.	8qqdd/	.
!	!	!	!	!	!LO:N:vis=0	!	!LO:N:vis=0	!LO:N:vis=0	!	!	!	!	!	!
.	.	2ryy	16A'/LL	.	1r	.	1r	1r	.	.	.	.	4cc#X\	.
.	.	.	16c#'/	.	.	.	.	.	.	.	.	.	.	.
.	.	.	16e'/	.	.	.	.	.	.	.	.	.	.	.
.	.	.	16a'/JJ	.	.	.	.	.	.	.	.	.	.	.
.	.	.	8c#/	.	.	.	.	.	.	.	.	.	16r	.
.	.	.	.	.	.	.	.	.	.	.	.	.	16a'\LL	.
.	.	.	8r	.	.	.	.	.	.	.	.	.	16cc#'\	.
.	.	.	.	.	.	.	.	.	.	.	.	.	16ee'\JJ	.
=65	=65	=65	=65	=65	=65	=65	=65	=65	=65	=65	=65	=65	=65	=65
.	.	.	.	.	.	.	.	.	.	.	.	.	8qqee/	.
!	!LO:N:vis=00	!	!	!	!	!	!	!	!	!	!	!	!	!
.	0r	2ryy	16r	.	.	.	.	.	.	.	.	.	4dd\	.
.	.	.	16d'/LL	.	.	.	.	.	.	.	.	.	.	.
.	.	.	16f#'/	.	.	.	.	.	.	.	.	.	.	.
.	.	.	16a'/JJ	.	.	.	.	.	.	.	.	.	.	.
!	!	!	!	!	!	!	!	!	!	!	!	!	!LO:LB:g=original	!
.	.	.	8d/	.	.	.	.	.	.	.	.	.	16r	.
.	.	.	.	.	.	.	.	.	.	.	.	.	16a'\LL	.
.	.	.	8r	.	.	.	.	.	.	.	.	.	16dd'\	.
.	.	.	.	.	.	.	.	.	.	.	.	.	16ff#'\JJ	.
=66	=66	=66	=66	=66	=66	=66	=66	=66	=66	=66	=66	=66	=66	=66
!	!	!	!	!	!LO:TX:t=P:problem=brak taktu	!	!LO:TX:t=P:problem=brak taktu	!LO:TX:t=P:problem=brak taktu	!LO:TX:t=P:problem=brak taktu	!	!LO:TX:a:t=P:problem=brak taktu	!	!	!
.	.	.	.	.	.	.	.	.	.	.	.	.	8qqff#/	.
!LO:N:vis=00	!	!	!	!	!	!	!	!	!	!	!	!	!	!
0r	.	2ryy	16r	.	2ryy	.	2ryy	2ryy	2ryy	.	2ryy	.	4ee\	.
.	.	.	16c#X/LL	.	.	.	.	.	.	.	.	.	.	.
.	.	.	16e/	.	.	.	.	.	.	.	.	.	.	.
.	.	.	16a/JJ	.	.	.	.	.	.	.	.	.	.	.
.	.	.	8c#/	.	.	.	.	.	.	.	.	.	16r	.
.	.	.	.	.	.	.	.	.	.	.	.	.	16a'\LL	.
.	.	.	8r	.	.	.	.	.	.	.	.	.	16ee'\	.
.	.	.	.	.	.	.	.	.	.	.	.	.	16gg'\JJ	.
!	!	!	!	!	!LO:PB:g=original	!	!	!	!	!	!	!	!	!
=67	=67	=67	=67	=67	=67	=67	=67	=67	=67	=67	=67	=67	=67	=67
!	!	!	!	!	!	!	!	!	!	!	!	!LO:DY:a:Bi:t=for.	!	!
.	.	2ryy	8d/	.	8D/L	.	8d\L	8D\L	8d/L	.	8dd\L	f	8ff#\	.
.	.	.	8r	.	16D/L	.	16d\L	16D\L	16d/L	.	16dd\L	.	8r	.
.	.	.	.	.	16D/JJ	.	16d\JJ	16D\JJ	16d/JJ	.	16dd\JJ	.	.	.
.	.	.	4r	.	8A/L	.	8a\L	8A\L	8a/L	.	8aa\L	.	4r	.
.	.	.	.	.	16A/L	.	16a\L	16A\L	16a/L	.	16aa\L	.	.	.
.	.	.	.	.	16A/JJ	.	16a\JJ	16A\JJ	16a/JJ	.	16aa\JJ	.	.	.
=68	=68	=68	=68	=68	=68	=68	=68	=68	=68	=68	=68	=68	=68	=68
!	!	!	!LO:N:vis=00	!	!	!	!	!	!	!	!	!	!LO:N:vis=00	!
.	.	2ryy	0r	.	4d\	.	4dd\	4d\	4dd\	.	4ddd\	.	0r	.
.	.	.	.	.	4A/	.	4a\	4A\	4a/	.	4aa\	.	.	.
=69	=69	=69	=69	=69	=69	=69	=69	=69	=69	=69	=69	=69	=69	=69
!	!LO:N:vis=00	!	!	!	!	!	!	!	!	!	!	!	!	!
.	0r	2ryy	.	.	16.d/LL	.	16.dd\LL	16.d\LL	16.dd/LL	.	16.ddd\LL	.	.	.
.	.	.	.	.	32A/K	.	32a\K	32A\K	32a/K	.	32aa\K	.	.	.
.	.	.	.	.	16.F#/	.	16.f#\	16.F#\	16.f#/	.	16.ff#\	.	.	.
.	.	.	.	.	32D/JJk	.	32d\JJk	32D\JJk	32d/JJk	.	32dd\JJk	.	.	.
!	!	!	!	!	!	!	!LO:TX:t=P:problem=mixed beam	!LO:TX:t=P:problem=mixed beam	!	!	!LO:TX:t=P:problem=mixed beam	!	!	!
.	.	.	.	.	8A/L	.	8a\L	8A\L	8a/L	.	8aa\L	.	.	.
.	.	.	.	.	8AA/J	.	8A/J	8AA/J	8a/J	.	8a/J	.	.	.
=70	=70	=70	=70	=70	=70	=70	=70	=70	=70	=70	=70	=70	=70	=70
!LO:N:vis=00	!	!	!	!	!	!	!	!	!	!	!	!	!	!
0r	.	2ryy	.	.	8D/L	.	8d\L	8D/L	8d/L	.	8dd\L	.	.	.
.	.	.	.	.	16.D/L	.	16.d\L	16.D/L	16.d/L	.	16.dd\L	.	.	.
.	.	.	.	.	32D/JJk	.	32d\JJk	32D/JJk	32d/JJk	.	32dd\JJk	.	.	.
.	.	.	.	.	8D/	.	8d\	8D/	8d/	.	8dd\	.	.	.
.	.	.	.	.	8r	.	8r	8r	8r	.	8r	.	.	.
!	!	!	!	!	!	!	!LO:LB:g=original	!LO:LB:g=original	!	!	!	!	!	!
=71	=71	=71	=71	=71	=71	=71	=71	=71	=71	=71	=71	=71	=71	=71
!	!	!	!	!	!LO:TX:t=P:problem=brak tt.69-72	!	!LO:TX:t=P:problem=brak tt.69-72	!	!LO:TX:a:i:t=dolce	!	!LO:TX:b:i:t=dolce.	!	!	!
.	.	2ryy	.	.	2ryy	.	2ryy	8r	(8.dd\L	.	(8.ff#\L	.	.	.
.	.	.	.	.	.	.	.	8D/L	.	.	.	.	.	.
.	.	.	.	.	.	.	.	.	32ee\LL	.	32gg\LL	.	.	.
.	.	.	.	.	.	.	.	.	32ff#\JJJ)	.	32aa\JJJ)	.	.	.
.	.	.	.	.	.	.	.	8D/	(16gg\LL	.	(16bb\LL	.	.	.
.	.	.	.	.	.	.	.	.	16ff#\)	.	16aa\)	.	.	.
.	.	.	.	.	.	.	.	8D/J	16ee'\	.	16gg'\	.	.	.
.	.	.	.	.	.	.	.	.	16dd'\JJ	.	16ff#'\JJ	.	.	.
!	!	!	!	!	!	!	!	!	!LO:LB:g=original	!	!LO:LB:g=original	!	!	!
=72	=72	=72	=72	=72	=72	=72	=72	=72	=72	=72	=72	=72	=72	=72
!	!	!	!LO:N:vis=0	!	!	!	!	!	!	!	!	!	!LO:N:vis=0	!
.	.	2ryy	1r	.	2ryy	.	2ryy	8r	(8.cc#\L	.	(8.ee\L	.	1r	.
.	.	.	.	.	.	.	.	8AA/L	.	.	.	.	.	.
.	.	.	.	.	.	.	.	.	32dd\LL	.	32ff#\LL	.	.	.
.	.	.	.	.	.	.	.	.	32ee\JJJ)	.	32gg\JJJ)	.	.	.
.	.	.	.	.	.	.	.	8AA/	(16ff#\LL	.	(16aa\LL	.	.	.
.	.	.	.	.	.	.	.	.	16ee\)	.	16gg\)	.	.	.
.	.	.	.	.	.	.	.	8AA/J	16dd'\	.	16ff#'\	.	.	.
.	.	.	.	.	.	.	.	.	16cc#'\JJ	.	16ee'\JJ	.	.	.
=73	=73	=73	=73	=73	=73	=73	=73	=73	=73	=73	=73	=73	=73	=73
!	!LO:N:vis=0	!	!	!	!	!	!	!	!	!	!	!	!	!
.	1r	2ryy	.	.	2ryy	.	2ryy	8r	(8.f#/L	.	(8.dd\L	.	.	.
.	.	.	.	.	.	.	.	8D/L	.	.	.	.	.	.
.	.	.	.	.	.	.	.	.	32g/LL	.	32ee\LL	.	.	.
.	.	.	.	.	.	.	.	.	32a/JJJ)	.	32ff#\JJJ)	.	.	.
.	.	.	.	.	.	.	.	8D/	(16b/LL	.	(16gg\LL	.	.	.
.	.	.	.	.	.	.	.	.	16a/)	.	16ff#\)	.	.	.
.	.	.	.	.	.	.	.	8D/J	16g'/	.	16ee'\	.	.	.
.	.	.	.	.	.	.	.	.	16f#'/JJ	.	16dd'\JJ	.	.	.
=74	=74	=74	=74	=74	=74	=74	=74	=74	=74	=74	=74	=74	=74	=74
!	!	!	!	!	!	!	!	!LO:TX:t=P:problem=mixed beam	!	!	!	!	!	!
2r	.	2ryy	2r	.	2ryy	.	2ryy	8A\L	8cc#\L	.	8ee\L	.	2r	.
.	.	.	.	.	.	.	.	16.AA/L	16.cc#\L	.	16.ee\L	.	.	.
.	.	.	.	.	.	.	.	32AA/JJk	32cc#\JJk	.	32ee\JJk	.	.	.
.	.	.	.	.	.	.	.	8AA/	8cc#\	.	8ee\	.	.	.
.	.	.	.	.	.	.	.	8r	8r	.	8r	.	.	.
=75	=75	=75	=75	=75	=75	=75	=75	=75	=75	=75	=75	=75	=75	=75
!	!	!	!	!	!LO:N:vis=00	!	!LO:N:vis=00	!LO:N:vis=00	!LO:N:vis=00	!	!LO:N:vis=00	!	!	!LO:DY:t=%s. dolce.
8C#X/	16r	2ryy	16r	.	0r	.	0r	0r	0r	.	0r	.	4.ee\	p
.	16c#X'\LL	.	16e'/LL	.	.	.	.	.	.	.	.	.	.	.
8r	16e'\	.	16g'/	.	.	.	.	.	.	.	.	.	.	.
.	16g'\JJ	.	16cc#X'/JJ	.	.	.	.	.	.	.	.	.	.	.
4r	16cc#\LL	.	16ee'/LL	.	.	.	.	.	.	.	.	.	.	.
.	16g'\	.	16cc#'/	.	.	.	.	.	.	.	.	.	.	.
.	16e'\	.	16a'/	.	.	.	.	.	.	.	.	.	24gg\LL	.
.	.	.	.	.	.	.	.	.	.	.	.	.	24bb-X\	.
.	16c#'\JJ	.	16e'/JJ	.	.	.	.	.	.	.	.	.	.	.
.	.	.	.	.	.	.	.	.	.	.	.	.	24gg\JJ	.
=76	=76	=76	=76	=76	=76	=76	=76	=76	=76	=76	=76	=76	=76	=76
8C#/	16r	2ryy	16r	.	.	.	.	.	.	.	.	.	16ffn\LL	.
.	16c#'\LL	.	16e/LL	.	.	.	.	.	.	.	.	.	16ee\J	.
8r	16e'\	.	16g/	.	.	.	.	.	.	.	.	.	8ee\J	.
.	16g'\JJ	.	16cc#/JJ	.	.	.	.	.	.	.	.	.	.	.
4r	16cc#'\LL	.	16ee/LL	.	.	.	.	.	.	.	.	.	4r	.
.	16g'\	.	16cc#/	.	.	.	.	.	.	.	.	.	.	.
.	16e'\	.	16a/	.	.	.	.	.	.	.	.	.	.	.
.	16c#'\JJ	.	16e/JJ	.	.	.	.	.	.	.	.	.	.	.
!	!	!	!LO:LB:g=original	!	!	!	!	!	!	!	!	!	!	!
=77	=77	=77	=77	=77	=77	=77	=77	=77	=77	=77	=77	=77	=77	=77
8C#/	16r	2ryy	16r	.	.	.	.	.	.	.	.	.	4r	.
.	16c#'\LL	.	16e/LL	.	.	.	.	.	.	.	.	.	.	.
8r	16e'\	.	16g/	.	.	.	.	.	.	.	.	.	.	.
.	16g'\JJ	.	16cc#X/JJ	.	.	.	.	.	.	.	.	.	.	.
4r	16cc#'\LL	.	16ee/LL	.	.	.	.	.	.	.	.	.	16r	.
.	16g'\	.	16cc#/	.	.	.	.	.	.	.	.	.	16ee\LL	.
.	16e'\	.	16g/	.	.	.	.	.	.	.	.	.	16bb-X\	.
.	16c#'\JJ	.	16e/JJ	.	.	.	.	.	.	.	.	.	16gg\JJ	.
!LO:LB:g=original	!LO:LB:g=original	!	!	!	!	!	!	!	!	!	!	!	!	!
=78	=78-	=78	=78	=78	=78	=78	=78	=78	=78	=78	=78	=78	=78	=78
!	!	!	!	!	!	!	!	!	!	!	!	!	!LO:TX:a:t=X	!
8C#/	16r	2ryy	16r	.	.	.	.	.	.	.	.	.	(16ffn\LL	.
.	16c#\LL	.	16e/LL	.	.	.	.	.	.	.	.	.	16ee\)	.
!	!	!	!	!	!	!	!	!	!	!	!	!	!LO:SIC:v:s=(16bb-\	!
8r	16e\	.	16g/	.	.	.	.	.	.	.	.	.	(16bb\	.
.	16g\JJ	.	16cc#/JJ	.	.	.	.	.	.	.	.	.	16gg\JJ)	.
!	!	!	!	!	!	!	!	!	!	!	!	!	!LO:LB:g=original	!
4r	16cc#\LL	.	16ee/LL	.	.	.	.	.	.	.	.	.	8r	.
.	16g\	.	16cc#/	.	.	.	.	.	.	.	.	.	.	.
!	!	!	!	!	!	!	!	!	!	!	!	!	!LO:SIC:v:s=(16bb-\LL	!
.	16e\	.	16g/	.	.	.	.	.	.	.	.	.	(16bb\LL	.
.	16c#\JJ	.	16e/JJ	.	.	.	.	.	.	.	.	.	16gg\JJ)	.
!	!	!	!	!	!	!	!	!	!	!	!	!	!LO:TX:a:t=X	!
=79	=79	=79	=79	=79	=79	=79	=79	=79	=79	=79	=79	=79	=79	=79
!	!	!	!	!	!LO:N:vis=00	!	!LO:N:vis=00	!LO:N:vis=00	!LO:N:vis=00	!	!LO:N:vis=00	!	!LO:TX:a:t=P:problem=skreślony takt (korekta)	!
8AA/	16r	2ryy	16r	.	0r	.	0r	0r	0r	.	0r	.	8r	.
.	16c#\LL	.	16e/LL	.	.	.	.	.	.	.	.	.	.	.
8r	16e\	.	16g/	.	.	.	.	.	.	.	.	.	(16ee\LL	.
.	16g\JJ	.	16cc#/JJ	.	.	.	.	.	.	.	.	.	16cc#X\JJ)	.
4r	16cc#\LL	.	16ee/LL	.	.	.	.	.	.	.	.	.	8r	.
.	16g\	.	16cc#/	.	.	.	.	.	.	.	.	.	.	.
.	16e\	.	16g/	.	.	.	.	.	.	.	.	.	(16ee\LL	.
.	16c#\JJ	.	16e/JJ	.	.	.	.	.	.	.	.	.	16cc#\JJ)	.
=80	=80	=80	=80	=80	=80	=80	=80	=80	=80	=80	=80	=80	=80	=80
!	!	!LO:TX:t=P:problem=brak taktu	!LO:TX:t=P:problem=brak taktu	!	!	!	!	!	!	!	!	!	!LO:TX:t=P:problem=brak taktu	!
8GG/	16r	2ryy	2ryy	.	.	.	.	.	.	.	.	.	2ryy	.
.	16c#\LL	.	.	.	.	.	.	.	.	.	.	.	.	.
8r	16e\	.	.	.	.	.	.	.	.	.	.	.	.	.
.	16g\JJ	.	.	.	.	.	.	.	.	.	.	.	.	.
4r	16cc#\LL	.	.	.	.	.	.	.	.	.	.	.	.	.
.	16g\	.	.	.	.	.	.	.	.	.	.	.	.	.
.	16e\	.	.	.	.	.	.	.	.	.	.	.	.	.
.	16c#\JJ	.	.	.	.	.	.	.	.	.	.	.	.	.
=81	=81	=81	=81	=81	=81	=81	=81	=81	=81	=81	=81	=81	=81	=81
8AA/	16r	2ryy	16r	.	.	.	.	.	.	.	.	.	4cc#X\	.
.	16c#\LL	.	16e/LL	.	.	.	.	.	.	.	.	.	.	.
8r	16e\	.	16a/	.	.	.	.	.	.	.	.	.	.	.
.	16a\JJ	.	16cc#/JJ	.	.	.	.	.	.	.	.	.	.	.
4r	16cc#\LL	.	16ee/LL	.	.	.	.	.	.	.	.	.	32e'/LLL	.
.	.	.	.	.	.	.	.	.	.	.	.	.	32g'/	.
.	16a\	.	16cc#/	.	.	.	.	.	.	.	.	.	32a'/	.
.	.	.	.	.	.	.	.	.	.	.	.	.	32cc#X'/JJJ	.
.	16e\	.	16a/	.	.	.	.	.	.	.	.	.	32ee'\LLL	.
.	.	.	.	.	.	.	.	.	.	.	.	.	32gg'\	.
.	16c#\JJ	.	16e/JJ	.	.	.	.	.	.	.	.	.	32aa'\	.
.	.	.	.	.	.	.	.	.	.	.	.	.	32ccc#X'\JJJ	.
=82	=82	=82	=82	=82	=82	=82	=82	=82	=82	=82	=82	=82	=82	=82
!	!	!	!	!	!	!	!	!	!	!	!	!	!LO:TX:t=P:problem=mixed beam	!
8AA/	16r	2ryy	16r	.	.	.	.	.	.	.	.	.	8.eee\L	.
.	16c#\LL	.	16e/LL	.	.	.	.	.	.	.	.	.	.	.
8r	16e\	.	16a/	.	.	.	.	.	.	.	.	.	.	.
.	16a\JJ	.	16cc#/JJ	.	.	.	.	.	.	.	.	.	16a/Jk	.
!	!	!	!	!	!	!	!	!	!	!	!	!	!LO:TX:t=P:problem=mixed beam	!
4r	16cc#\LL	.	16ee/LL	.	.	.	.	.	.	.	.	.	(>32aa\LLL	.
.	.	.	.	.	.	.	.	.	.	.	.	.	32a/)	.
.	16a\	.	16cc#/	.	.	.	.	.	.	.	.	.	(>32gg\	.
.	.	.	.	.	.	.	.	.	.	.	.	.	32g/JJJ)	.
!	!	!	!	!	!	!	!	!	!	!	!	!	!LO:TX:t=P:problem=mixed beam	!
.	16e\	.	16a/	.	.	.	.	.	.	.	.	.	(>32ffn\LLL	.
!	!	!	!	!	!	!	!	!	!	!	!	!	!LO:SIC:v:s=32fn/)	!
.	.	.	.	.	.	.	.	.	.	.	.	.	32f#/)	.
.	16c#\JJ	.	16e/JJ	.	.	.	.	.	.	.	.	.	(>32ee\	.
.	.	.	.	.	.	.	.	.	.	.	.	.	32e/JJJ)	.
=83	=83	=83	=83	=83	=83	=83	=83	=83	=83	=83	=83	=83	=83	=83
!	!	!	!	!	!LO:N:vis=00	!	!LO:N:vis=00	!LO:N:vis=00	!	!	!	!	!	!
8AA/	16r	2ryy	16r	.	0r	.	0r	0r	8r	.	8r	.	8dd\	.
.	16d\LL	.	16fn/LL	.	.	.	.	.	.	.	.	.	.	.
!	!	!	!	!	!	!	!	!	!	!LO:DY:b:BI:t=p.	!	!	!	!
8r	16fn\	.	16a/	.	.	.	.	.	(8dd'\L	p	8ffn'\L	.	8r	.
.	16a\JJ	.	16dd/JJ	.	.	.	.	.	.	.	.	.	.	.
!	!	!	!	!	!	!	!	!	!	!	!	!LO:DY:b:Bi:t=p.	!	!
4r	16dd\LL	.	16ffn/LL	.	.	.	.	.	8dd'\	.	8ff'\	p	4r	.
.	16a\	.	16dd/	.	.	.	.	.	.	.	.	.	.	.
.	16f\	.	16a/	.	.	.	.	.	8dd'\J)	.	8ff'\J	.	.	.
.	16d\JJ	.	16f/JJ	.	.	.	.	.	.	.	.	.	.	.
!	!	!	!LO:LB:g=original	!	!	!	!	!	!	!	!	!	!LO:LB:g=original	!
=84	=84	=84	=84	=84	=84	=84	=84	=84	=84	=84	=84	=84	=84	=84
!	!	!	!	!	!	!	!	!	!	!	!LO:SIC:v:s=2ffn\	!	!	!
8D\	16r	2ryy	16r	.	.	.	.	.	2dd\	.	2ff#\	.	4r	.
.	16d\LL	.	16fn/LL	.	.	.	.	.	.	.	.	.	.	.
8r	16fn\	.	16a/	.	.	.	.	.	.	.	.	.	.	.
!	!	!	!LO:SIC:v:s=16dd/JJ	!	!	!	!	!	!	!	!	!	!	!
.	16a\JJ	.	16cc#/JJ	.	.	.	.	.	.	.	.	.	.	.
4r	16dd\LL	.	16ffn/LL	.	.	.	.	.	.	.	.	.	16r	.
!	!	!	!LO:SIC:v:s=16dd/	!	!	!	!	!	!	!	!	!	!	!
.	16a\	.	16cc#/	.	.	.	.	.	.	.	.	.	16aa\LL	.
!	!	!	!	!	!	!	!	!	!	!	!	!	!LO:SIC:v:s=16ffn\	!
.	16f\	.	16a/	.	.	.	.	.	.	.	.	.	16ff#\	.
.	16d\JJ	.	16f/JJ	.	.	.	.	.	.	.	.	.	16dd\JJ	.
=85	=85	=85	=85	=85	=85	=85	=85	=85	=85	=85	=85	=85	=85	=85
!	!	!	!	!	!	!	!	!	!LO:N:vis=00	!	!LO:N:vis=00	!	!LO:SIC:v:s=4bb-\	!
8D\	8g\	2ryy	16r	.	.	.	.	.	0r	.	0r	.	4bb\	.
.	.	.	16g/LL	.	.	.	.	.	.	.	.	.	.	.
8r	8r	.	16d/	.	.	.	.	.	.	.	.	.	.	.
.	.	.	16B-X/JJ	.	.	.	.	.	.	.	.	.	.	.
!	!	!	!	!	!	!	!	!	!	!	!	!	!LO:SIC:v:s=16bb-'\LL	!
4r	4r	.	8G/	.	.	.	.	.	.	.	.	.	16bb'\LL	.
.	.	.	.	.	.	.	.	.	.	.	.	.	16aa'\	.
.	.	.	8r	.	.	.	.	.	.	.	.	.	16gg'\	.
!	!	!	!	!	!	!	!	!	!	!	!	!	!LO:SIC:v:s=16ffn'\JJ	!
.	.	.	.	.	.	.	.	.	.	.	.	.	16ff#'\JJ	.
=86	=86	=86	=86	=86	=86	=86	=86	=86	=86	=86	=86	=86	=86	=86
!	!	!	!	!	!	!	!	!	!	!	!	!	!LO:SIC:v:s=8qqffn/	!
.	.	.	.	.	.	.	.	.	.	.	.	.	8qqff#/	.
!	!LO:N:vis=00	!	!	!	!	!	!	!	!	!	!	!	!	!
8G\	0r	2ryy	16r	.	.	.	.	.	.	.	.	.	4ee\	.
.	.	.	16ccn/LL	.	.	.	.	.	.	.	.	.	.	.
8r	.	.	16g/	.	.	.	.	.	.	.	.	.	.	.
.	.	.	16e/JJ	.	.	.	.	.	.	.	.	.	.	.
4r	.	.	8cn/	.	.	.	.	.	.	.	.	.	16r	.
.	.	.	.	.	.	.	.	.	.	.	.	.	16gg'\LL	.
.	.	.	8r	.	.	.	.	.	.	.	.	.	16ee'\	.
!	!	!	!	!	!	!	!	!	!	!	!	!	!LO:SIC:v:s=16ccn'\JJ	!
.	.	.	.	.	.	.	.	.	.	.	.	.	16cc#'\JJ	.
=87	=87	=87	=87	=87	=87	=87	=87	=87	=87	=87	=87	=87	=87	=87
!	!	!	!	!	!LO:N:vis=00	!	!LO:N:vis=00	!LO:N:vis=00	!	!	!	!	!	!
8Cn/	.	2ryy	16r	.	0r	.	0r	0r	.	.	.	.	4aa\	.
.	.	.	16ffn\LL	.	.	.	.	.	.	.	.	.	.	.
8r	.	.	16ccn\	.	.	.	.	.	.	.	.	.	.	.
.	.	.	16a\JJ	.	.	.	.	.	.	.	.	.	.	.
!	!	!	!LO:SIC:v:s=8fn/	!	!	!	!	!	!	!	!	!	!	!
4r	.	.	8f#/	.	.	.	.	.	.	.	.	.	16aa'\LL	.
.	.	.	.	.	.	.	.	.	.	.	.	.	16gg'\	.
!	!	!	!	!	!	!	!	!	!	!	!	!	!LO:SIC:v:s=16ffn'\	!
.	.	.	8r	.	.	.	.	.	.	.	.	.	16ff#'\	.
.	.	.	.	.	.	.	.	.	.	.	.	.	16ee'\JJ	.
=88	=88	=88	=88	=88	=88	=88	=88	=88	=88	=88	=88	=88	=88	=88
.	.	.	.	.	.	.	.	.	.	.	.	.	8qqee/	.
8Fn\	.	2ryy	16r	.	.	.	.	.	.	.	.	.	4dd\	.
.	.	.	16b-X/LL	.	.	.	.	.	.	.	.	.	.	.
8r	.	.	16fn/	.	.	.	.	.	.	.	.	.	.	.
.	.	.	16d/JJ	.	.	.	.	.	.	.	.	.	.	.
!	!	!	!LO:SIC:v:s=8B-/	!	!	!	!	!	!	!	!	!	!	!
4r	.	.	8B/	.	.	.	.	.	.	.	.	.	16r	.
!	!	!	!	!	!	!	!	!	!	!	!	!	!LO:SIC:v:s=16ffn'\LL	!
.	.	.	.	.	.	.	.	.	.	.	.	.	16ff#'\LL	.
.	.	.	8r	.	.	.	.	.	.	.	.	.	16dd'\	.
.	.	.	.	.	.	.	.	.	.	.	.	.	16b-X'\JJ	.
=89	=89	=89	=89	=89	=89	=89	=89	=89	=89	=89	=89	=89	=89	=89
!	!	!	!	!	!	!	!	!	!LO:N:vis=00	!	!LO:N:vis=00	!	!	!
8BB-X/	.	2ryy	16r	.	.	.	.	.	0r	.	0r	.	4gg\	.
.	.	.	16ee\LL	.	.	.	.	.	.	.	.	.	.	.
8r	.	.	16b-X\	.	.	.	.	.	.	.	.	.	.	.
.	.	.	16g\JJ	.	.	.	.	.	.	.	.	.	.	.
4r	.	.	8e/	.	.	.	.	.	.	.	.	.	16gg'\LL	.
!	!	!	!	!	!	!	!	!	!	!	!	!	!LO:SIC:v:s=16ffn'\	!
.	.	.	.	.	.	.	.	.	.	.	.	.	16ff#'\	.
.	.	.	8r	.	.	.	.	.	.	.	.	.	16ee'\	.
.	.	.	.	.	.	.	.	.	.	.	.	.	16dd'\JJ	.
!LO:LB:g=original	!LO:LB:g=original	!	!LO:LB:g=original	!	!	!	!	!	!	!	!	!	!	!
=90	=90	=90	=90	=90	=90	=90	=90	=90	=90	=90	=90	=90	=90	=90
8E\	16r	2ryy	16r	.	.	.	.	.	.	.	.	.	8cc#X\	.
.	16c#X'\LL	.	16e'/LL	.	.	.	.	.	.	.	.	.	.	.
8r	16c#'\	.	16e'/	.	.	.	.	.	.	.	.	.	8r	.
.	16c#'\JJ	.	16e'/JJ	.	.	.	.	.	.	.	.	.	.	.
4r	16c#\LL	.	(16e/LL	.	.	.	.	.	.	.	.	.	4r	.
.	(16d\	.	16fn/	.	.	.	.	.	.	.	.	.	.	.
.	16e\)	.	16g/)	.	.	.	.	.	.	.	.	.	.	.
.	16fn\JJ	.	16a/JJ	.	.	.	.	.	.	.	.	.	.	.
!	!	!	!	!	!	!	!	!	!	!	!	!	!LO:LB:g=original	!
=91	=91	=91	=91	=91	=91	=91	=91	=91	=91	=91	=91	=91	=91	=91
!	!	!	!	!	!LO:N:vis=00	!	!LO:N:vis=00	!LO:N:vis=00	!	!	!	!	!	!
8AA/	8e\	2ryy	8g/	.	0r	.	0r	0r	.	.	.	.	16r	.
.	.	.	.	.	.	.	.	.	.	.	.	.	16gg'\LL	.
8r	8r	.	8r	.	.	.	.	.	.	.	.	.	16gg'\	.
.	.	.	.	.	.	.	.	.	.	.	.	.	16gg'\JJ	.
4r	4r	.	4r	.	.	.	.	.	.	.	.	.	(16gg\LL	.
!	!	!	!	!	!	!	!	!	!	!	!	!	!LO:SIC:v:s=16ffn\	!
.	.	.	.	.	.	.	.	.	.	.	.	.	16ff#\	.
.	.	.	.	.	.	.	.	.	.	.	.	.	16ee\)	.
.	.	.	.	.	.	.	.	.	.	.	.	.	16dd\JJ	.
=92	=92	=92	=92	=92	=92	=92	=92	=92	=92	=92	=92	=92	=92	=92
8AA/	16r	2ryy	16r	.	.	.	.	.	.	.	.	.	8cc#X\	.
.	16c#X'\LL	.	16e'/LL	.	.	.	.	.	.	.	.	.	.	.
8r	16c#'\	.	16e'/	.	.	.	.	.	.	.	.	.	8r	.
.	16c#'\JJ	.	16e'/JJ	.	.	.	.	.	.	.	.	.	.	.
4r	(16c#\LL	.	16e/LL	.	.	.	.	.	.	.	.	.	4r	.
.	16d\	.	(16fn/	.	.	.	.	.	.	.	.	.	.	.
.	16e\)	.	16g/)	.	.	.	.	.	.	.	.	.	.	.
.	16fn\JJ	.	16a/JJ	.	.	.	.	.	.	.	.	.	.	.
=93	=93	=93	=93	=93	=93	=93	=93	=93	=93	=93	=93	=93	=93	=93
!	!	!	!	!	!	!	!	!	!LO:N:vis=00	!	!LO:N:vis=00	!	!	!
8AA/	8e\	2ryy	8g/	.	.	.	.	.	0r	.	0r	.	16r	.
.	.	.	.	.	.	.	.	.	.	.	.	.	16gg'\LL	.
8r	8r	.	8r	.	.	.	.	.	.	.	.	.	16gg'\	.
.	.	.	.	.	.	.	.	.	.	.	.	.	16gg'\JJ	.
4r	4r	.	4r	.	.	.	.	.	.	.	.	.	16gg\LL	.
!	!	!	!	!	!	!	!	!	!	!	!	!	!LO:SIC:v:s=(16ffn\	!
.	.	.	.	.	.	.	.	.	.	.	.	.	(16ff#\	.
.	.	.	.	.	.	.	.	.	.	.	.	.	16ee-X\)	.
.	.	.	.	.	.	.	.	.	.	.	.	.	16dd\JJ	.
=94	=94	=94	=94	=94	=94	=94	=94	=94	=94	=94	=94	=94	=94	=94
8AA/	16r	2ryy	16r	.	.	.	.	.	.	.	.	.	2ee-X\	.
.	16e-X'\LL	.	16g\LL	.	.	.	.	.	.	.	.	.	.	.
8r	16g'\	.	16b-X\	.	.	.	.	.	.	.	.	.	.	.
.	16b-X'\JJ	.	16ee-X\JJ	.	.	.	.	.	.	.	.	.	.	.
4r	16ee-X'\LL	.	16gg\LL	.	.	.	.	.	.	.	.	.	.	.
.	16b-'\	.	16ee-\	.	.	.	.	.	.	.	.	.	.	.
.	16g'\	.	16b-\	.	.	.	.	.	.	.	.	.	.	.
.	16e-'\JJ	.	16g\JJ	.	.	.	.	.	.	.	.	.	.	.
=95	=95	=95	=95	=95	=95	=95	=95	=95	=95	=95	=95	=95	=95	=95
!LO:N:vis=0	!	!	!	!	!LO:N:vis=00	!	!LO:N:vis=00	!LO:N:vis=00	!	!	!	!	!	!
1r	16r	2ryy	16r	.	0r	.	0r	0r	.	.	.	.	2ff#X\	.
.	16cn\LL	.	16e-X/LL	.	.	.	.	.	.	.	.	.	.	.
.	16e-X\	.	16a/	.	.	.	.	.	.	.	.	.	.	.
.	16g\JJ	.	16ccn/JJ	.	.	.	.	.	.	.	.	.	.	.
!	!LO:SIC:v:s=16ccn\LL	!	!	!	!	!	!	!	!	!	!	!	!	!
.	16cc#\LL	.	16ee-X/LL	.	.	.	.	.	.	.	.	.	.	.
.	16g\	.	16cc/	.	.	.	.	.	.	.	.	.	.	.
.	16e-\	.	16a/	.	.	.	.	.	.	.	.	.	.	.
.	16c\JJ	.	16e-/JJ	.	.	.	.	.	.	.	.	.	.	.
=96	=96	=96	=96	=96	=96	=96	=96	=96	=96	=96	=96	=96	=96	=96
.	16r	2ryy	16r	.	.	.	.	.	.	.	.	.	4.gg\	.
.	16G/LL	.	16B-X/LL	.	.	.	.	.	.	.	.	.	.	.
.	16B-X/	.	16d/	.	.	.	.	.	.	.	.	.	.	.
.	16d/JJ	.	16g/JJ	.	.	.	.	.	.	.	.	.	.	.
!	!	!	!LO:LB:g=original	!	!	!	!	!	!	!	!	!	!	!
.	16g/LL	.	16b-X/LL	.	.	.	.	.	.	.	.	.	.	.
.	16d/	.	16g/	.	.	.	.	.	.	.	.	.	.	.
!	!	!	!	!	!	!	!	!	!	!	!	!	!LO:SIC:v:s=32bb-\LLL	!
.	16B-/	.	16d/	.	.	.	.	.	.	.	.	.	32bb\LLL	.
.	.	.	.	.	.	.	.	.	.	.	.	.	32gg\	.
.	16G/JJ	.	16B-/JJ	.	.	.	.	.	.	.	.	.	32ee\	.
.	.	.	.	.	.	.	.	.	.	.	.	.	32dd\JJJ	.
=97	=97	=97	=97	=97	=97	=97	=97	=97	=97	=97	=97	=97	=97	=97
!LO:TX:t=P:problem=brak taktu	!	!	!	!	!	!	!	!	!	!	!	!	!	!
.	.	.	.	.	.	.	.	.	.	.	.	.	8qqdd/	.
!	!	!	!	!	!	!	!	!	!LO:N:vis=00	!	!LO:N:vis=00	!	!	!
2ryy	16r	2ryy	16r	.	.	.	.	.	0r	.	0r	.	8cc#X\	.
.	16A/LL	.	16c#X/LL	.	.	.	.	.	.	.	.	.	.	.
.	16c#X/	.	16e/	.	.	.	.	.	.	.	.	.	4.ccc#X\	.
.	16e/JJ	.	16a/JJ	.	.	.	.	.	.	.	.	.	.	.
!	!LO:SIC:v:s=16a\LL	!	!	!	!	!	!	!	!	!	!	!	!	!
.	16g\LL	.	16cc#X/LL	.	.	.	.	.	.	.	.	.	.	.
.	16e\	.	16a/	.	.	.	.	.	.	.	.	.	.	.
.	16c#\	.	16e/	.	.	.	.	.	.	.	.	.	.	.
.	16A\JJ	.	16c#/JJ	.	.	.	.	.	.	.	.	.	.	.
!	!	!	!	!	!	!	!	!	!	!	!	!	!LO:LB:g=original	!
=98	=98	=98	=98	=98	=98	=98	=98	=98	=98	=98	=98	=98	=98	=98
8D\	16r	2ryy	16r	.	.	.	.	.	.	.	.	.	8.ddd\L	.
.	16A/LL	.	16d/LL	.	.	.	.	.	.	.	.	.	.	.
8r	16d/	.	16fn/	.	.	.	.	.	.	.	.	.	.	.
.	16fn/JJ	.	16a/JJ	.	.	.	.	.	.	.	.	.	16aa\K	.
!	!LO:LB:g=original	!	!	!	!	!	!	!	!	!	!	!	!LO:SIC:v:s=8.bb-\	!
8G\	16r	.	16r	.	.	.	.	.	.	.	.	.	8.bb\	.
.	16B-X\LL	.	16d/LL	.	.	.	.	.	.	.	.	.	.	.
8r	16d\	.	16g/	.	.	.	.	.	.	.	.	.	.	.
.	16g\JJ	.	16b-X/JJ	.	.	.	.	.	.	.	.	.	16gg\Jk	.
=99	=99	=99	=99	=99	=99	=99	=99	=99	=99	=99	=99	=99	=99	=99
!	!	!	!	!	!LO:N:vis=00	!	!LO:N:vis=00	!LO:N:vis=00	!	!	!	!	!LO:SIC:v:s=8.ffn\L	!
8A\	16r	2ryy	16r	.	0r	.	0r	0r	.	.	.	.	8.ff#\L	.
.	16A\LL	.	16d/LL	.	.	.	.	.	.	.	.	.	.	.
8r	16d\	.	16fn/	.	.	.	.	.	.	.	.	.	.	.
.	16fn\JJ	.	16a/JJ	.	.	.	.	.	.	.	.	.	16gg\K	.
8AA/	16r	.	16r	.	.	.	.	.	.	.	.	.	8.ee\	.
.	16A/LL	.	16c#X/LL	.	.	.	.	.	.	.	.	.	.	.
8r	16c#X/	.	16e/	.	.	.	.	.	.	.	.	.	.	.
!	!	!	!	!	!	!	!	!	!	!	!	!	!LO:SIC:v:s=16ffn\Jk	!
.	16e/JJ	.	16g/JJ	.	.	.	.	.	.	.	.	.	16ff#\Jk	.
=100	=100	=100	=100	=100	=100	=100	=100	=100	=100	=100	=100	=100	=100	=100
8D/	8d\	2ryy	16r	.	.	.	.	.	.	.	.	.	8dd\	.
.	.	.	16d/LL	.	.	.	.	.	.	.	.	.	.	.
8r	8r	.	16fn/	.	.	.	.	.	.	.	.	.	8r	.
.	.	.	16a/JJ	.	.	.	.	.	.	.	.	.	.	.
4r	4r	.	8d/	.	.	.	.	.	.	.	.	.	16r	.
.	.	.	.	.	.	.	.	.	.	.	.	.	16dd'\LL	.
!	!	!	!	!	!	!	!	!	!	!	!	!	!	!LO:DY:b:Bi:t=p.
.	.	.	8r	.	.	.	.	.	.	.	.	.	16ff#'\	p
.	.	.	.	.	.	.	.	.	.	.	.	.	16aa'\JJ	.
=101	=101	=101	=101	=101	=101	=101	=101	=101	=101	=101	=101	=101	=101	=101
.	.	.	.	.	.	.	.	.	.	.	.	.	8qqaa/	.
!LO:N:vis=00	!LO:N:vis=00	!	!	!	!	!	!	!	!LO:N:vis=00	!	!LO:N:vis=00	!	!	!
0r	0r	2ryy	16r	.	.	.	.	.	0r	.	0r	.	4gg#X\	.
.	.	.	16e/LL	.	.	.	.	.	.	.	.	.	.	.
.	.	.	16g#X/	.	.	.	.	.	.	.	.	.	.	.
.	.	.	16b/JJ	.	.	.	.	.	.	.	.	.	.	.
.	.	.	8e/	.	.	.	.	.	.	.	.	.	16r	.
.	.	.	.	.	.	.	.	.	.	.	.	.	16dd'\LL	.
.	.	.	8r	.	.	.	.	.	.	.	.	.	16b'\	.
.	.	.	.	.	.	.	.	.	.	.	.	.	16g#X'\JJ	.
!	!	!	!LO:LB:g=original	!	!	!	!	!	!	!	!	!	!	!
=102	=102	=102	=102	=102	=102	=102	=102	=102	=102	=102	=102	=102	=102	=102
.	.	2ryy	16r	.	.	.	.	.	.	.	.	.	4a/	.
.	.	.	16A/LL	.	.	.	.	.	.	.	.	.	.	.
.	.	.	16c#/	.	.	.	.	.	.	.	.	.	.	.
.	.	.	16e/JJ	.	.	.	.	.	.	.	.	.	.	.
.	.	.	8A/	.	.	.	.	.	.	.	.	.	16r	.
.	.	.	.	.	.	.	.	.	.	.	.	.	16cc#X'\LL	.
.	.	.	8r	.	.	.	.	.	.	.	.	.	16ee'\	.
.	.	.	.	.	.	.	.	.	.	.	.	.	16gg'\JJ	.
=103	=103	=103	=103	=103	=103	=103	=103	=103	=103	=103	=103	=103	=103	=103
.	.	.	.	.	.	.	.	.	.	.	.	.	8qqgg/	.
!	!	!	!	!	!LO:N:vis=00	!	!LO:N:vis=00	!LO:N:vis=00	!	!	!	!	!	!
.	.	2ryy	16r	.	0r	.	0r	0r	.	.	.	.	4ff#X\	.
.	.	.	16d/LL	.	.	.	.	.	.	.	.	.	.	.
.	.	.	16f#/	.	.	.	.	.	.	.	.	.	.	.
.	.	.	16a/JJ	.	.	.	.	.	.	.	.	.	.	.
.	.	.	8d/	.	.	.	.	.	.	.	.	.	16r	.
.	.	.	.	.	.	.	.	.	.	.	.	.	16cc#/LL	.
.	.	.	8r	.	.	.	.	.	.	.	.	.	16a/	.
.	.	.	.	.	.	.	.	.	.	.	.	.	16f#X/JJ	.
=104	=104	=104	=104	=104	=104	=104	=104	=104	=104	=104	=104	=104	=104	=104
.	.	.	.	.	.	.	.	.	.	.	.	.	8qqf#/	.
.	.	2ryy	16r	.	.	.	.	.	.	.	.	.	4g/	.
.	.	.	16G/LL	.	.	.	.	.	.	.	.	.	.	.
.	.	.	16B/	.	.	.	.	.	.	.	.	.	.	.
.	.	.	16d/JJ	.	.	.	.	.	.	.	.	.	.	.
!	!	!	!	!	!	!	!	!	!	!	!	!	!LO:LB:g=original	!
.	.	.	8G/	.	.	.	.	.	.	.	.	.	16r	.
.	.	.	.	.	.	.	.	.	.	.	.	.	16bn'\LL	.
.	.	.	8r	.	.	.	.	.	.	.	.	.	16dd'\	.
.	.	.	.	.	.	.	.	.	.	.	.	.	16gg'\JJ	.
=105	=105	=105	=105	=105	=105	=105	=105	=105	=105	=105	=105	=105	=105	=105
!LO:N:vis=00	!	!	!	!	!	!	!	!	!LO:N:vis=0	!	!LO:N:vis=0	!	!	!LO:HP:t=Cres&colon;
0r	16r	2ryy	16r	.	.	.	.	.	1r	.	1r	.	2bbn\	<
.	16d\LL	.	16g/LL	.	.	.	.	.	.	.	.	.	.	.
.	16g\	.	16bn/	.	.	.	.	.	.	.	.	.	.	.
.	16bn\JJ	.	16dd/JJ	.	.	.	.	.	.	.	.	.	.	.
.	16dd\LL	.	16gg\LL	.	.	.	.	.	.	.	.	.	.	.
.	16b\	.	16dd\	.	.	.	.	.	.	.	.	.	.	.
.	16g\	.	16b\	.	.	.	.	.	.	.	.	.	.	.
.	16d\JJ	.	16g\JJ	.	.	.	.	.	.	.	.	.	.	.
=106	=106	=106	=106	=106	=106	=106	=106	=106	=106	=106	=106	=106	=106	=106
.	16r	2ryy	16r	.	.	.	.	.	.	.	.	.	2ccc#X\	.
.	16e\LL	.	16g\LL	.	.	.	.	.	.	.	.	.	.	.
.	16g\	.	16cc#X\	.	.	.	.	.	.	.	.	.	.	.
.	16cc#X\JJ	.	16ee\JJ	.	.	.	.	.	.	.	.	.	.	.
.	16ee\LL	.	16gg\LL	.	.	.	.	.	.	.	.	.	.	.
.	16cc#\	.	16ee\	.	.	.	.	.	.	.	.	.	.	.
.	16g\	.	16cc#\	.	.	.	.	.	.	.	.	.	.	.
.	16e\JJ	.	16g\JJ	.	.	.	.	.	.	.	.	.	.	.
!	!	!	!	!	!LO:LB:g=original	!	!	!	!	!	!LO:LB:g=original	!	!	!
=107	=107	=107	=107	=107	=107	=107	=107	=107	=107	=107	=107	=107	=107	=107
!	!	!	!	!	!	!	!	!	!	!LO:DY:a:Bi:t=for.	!	!	!	!
.	8d\	2ryy	8f#X/	.	8D/L	.	8d\L	8D\L	8d/L	f	8dd\L	.	8ddd\	.
.	8r	.	8r	.	16D/L	.	16d\L	16D\L	16d/L	.	16dd\L	.	8r	.
.	.	.	.	.	16D/JJ	.	16d\JJ	16D\JJ	16d/JJ	.	16dd\JJ	.	.	.
.	4r	.	4r	.	8A/L	.	8a\L	8A\L	8a/L	.	8aa\L	.	4r	.
.	.	.	.	.	16A/L	.	16a\L	16A\L	16a/L	.	16aa\L	.	.	.
.	.	.	.	.	16A/JJ	.	16a\JJ	16A\JJ	16a/JJ	.	16aa\JJ	.	.	.
!	!	!	!	!	!	!	!	!LO:LB:g=original	!	!	!	!	!	!
=108	=108	=108	=108	=108	=108	=108	=108	=108	=108	=108	=108	=108	=108	=108
!	!LO:N:vis=00	!	!LO:N:vis=00	!	!	!	!	!	!	!	!	!	!LO:N:vis=00	!
.	0r	2ryy	0r	.	4d\	.	4dd\	4d\	4dd\	.	4ddd\	.	0r	.
.	.	.	.	.	4A/	.	4a\	4A\	4a/	.	4aa\	.	.	.
!	!	!	!	!	!	!	!	!	!LO:LB:g=original	!	!	!	!	!
=109	=109	=109	=109	=109	=109	=109	=109	=109	=109	=109	=109	=109	=109	=109
!LO:N:vis=00	!	!	!	!	!	!	!	!	!	!	!	!	!	!
0r	.	2ryy	.	.	16.d/LL	.	16.dd\LL	16.d\LL	16.dd/LL	.	16.ddd\LL	.	.	.
.	.	.	.	.	32A/K	.	32a\K	32A\K	32a/K	.	32aa\K	.	.	.
.	.	.	.	.	16.F#/	.	16.f#\	16.F#\	16.f#/	.	16.ff#\	.	.	.
.	.	.	.	.	32D/JJk	.	32d\JJk	32D\JJk	32d/JJk	.	32dd\JJk	.	.	.
!	!	!	!	!	!	!	!LO:TX:t=P:problem=mixed beam	!LO:TX:t=P:problem=mixed beam	!	!	!LO:TX:t=P:problem=mixed beam	!	!	!
.	.	.	.	.	8A/L	.	8a\L	8A\L	8a/L	.	8aa\L	.	.	.
.	.	.	.	.	8AA/J	.	8A/J	8AA/J	8a/J	.	8a/J	.	.	.
=110	=110	=110	=110	=110	=110	=110	=110	=110	=110	=110	=110	=110	=110	=110
.	.	2ryy	.	.	8D/L	.	8d\L	8D/L	8d/L	.	8dd\L	.	.	.
.	.	.	.	.	16.D/L	.	16.d\L	16.D/L	16.d/L	.	16.dd\L	.	.	.
.	.	.	.	.	32D/JJk	.	32d\JJk	32D/JJk	32d/JJk	.	32dd\JJk	.	.	.
.	.	.	.	.	8D/	.	8d\	8D/	8d/	.	8dd\	.	.	.
.	.	.	.	.	8r	.	8r	8r	8r	.	8r	.	.	.
=111	=111	=111	=111	=111	=111	=111	=111	=111	=111	=111	=111	=111	=111	=111
!	!	!	!	!	!	!	!	!	!	!	!LO:TX:b:i:t=dolce	!	!	!
.	.	2ryy	.	.	8r	.	8r	8r	(8.dd\L	.	(8.ff#\L	.	.	.
!	!	!	!	!	!LO:TX:a:t=e	!	!	!	!	!	!	!	!	!
.	.	.	.	.	8A 8F#/	.	8d\	8D/L	.	.	.	.	.	.
!	!	!	!	!	!	!	!	!	!LO:TX:b:i:t=dolce.	!	!	!	!	!
.	.	.	.	.	.	.	.	.	32ee\LL	.	32gg\LL	.	.	.
.	.	.	.	.	.	.	.	.	32ff#\JJJ)	.	32aa\JJJ)	.	.	.
!	!	!	!	!	!LO:TX:a:t=e	!	!	!	!	!	!	!	!	!
.	.	.	.	.	4A 4F#/	.	4d\	8D/	(16gg\LL	.	(16bb\LL	.	.	.
.	.	.	.	.	.	.	.	.	16ff#\)	.	16aa\)	.	.	.
.	.	.	.	.	.	.	.	8D/J	16ee'\	.	16gg'\	.	.	.
.	.	.	.	.	.	.	.	.	16dd'\JJ	.	16ff#'\JJ	.	.	.
=112	=112	=112	=112	=112	=112	=112	=112	=112	=112	=112	=112	=112	=112	=112
!	!LO:N:vis=0	!	!LO:N:vis=0	!	!	!	!	!	!	!	!	!	!LO:N:vis=0	!
.	1r	2ryy	1r	.	8r	.	8r	8r	(8.cc#\L	.	(8.ee\L	.	1r	.
.	.	.	.	.	8A/	.	8e\	8AA/L	.	.	.	.	.	.
.	.	.	.	.	.	.	.	.	32dd\LL	.	32ff#\LL	.	.	.
.	.	.	.	.	.	.	.	.	32ee\JJJ)	.	32gg\JJJ)	.	.	.
.	.	.	.	.	4A/	.	4e\	8AA/	(16ff#\LL	.	(16aa\LL	.	.	.
.	.	.	.	.	.	.	.	.	16ee\)	.	16gg\)	.	.	.
.	.	.	.	.	.	.	.	8AA/J	16dd'\	.	16ff#'\	.	.	.
.	.	.	.	.	.	.	.	.	16cc#'\JJ	.	16ee'\JJ	.	.	.
!	!	!	!	!	!LO:LB:g=original	!	!	!	!	!	!LO:LB:g=original	!	!	!
=113	=113	=113	=113	=113	=113	=113	=113	=113	=113	=113	=113	=113	=113	=113
!LO:N:vis=0	!	!	!	!	!	!	!	!LO:TX:t=P:problem=mixed beam	!	!	!	!	!	!
1r	.	2ryy	.	.	8r	.	8r	8D\L	(16a/LL	.	(16ff#\LL	.	.	.
.	.	.	.	.	.	.	.	.	16f#/)	.	16dd\)	.	.	.
.	.	.	.	.	8e\L	.	(8g\L	8G\	(16b/	.	(16gg\	.	.	.
.	.	.	.	.	.	.	.	.	16g/JJ)	.	16ee\JJ)	.	.	.
.	.	.	.	.	8d\	.	8f#\	8A\	(16g/LL	.	(16ee\LL	.	.	.
.	.	.	.	.	.	.	.	.	16f#/)	.	16dd\)	.	.	.
.	.	.	.	.	8A\J	.	8e\J)	8AA/J	(16f#/	.	(16dd\	.	.	.
.	.	.	.	.	.	.	.	.	16e/JJ)	.	16cc#\JJ)	.	.	.
!	!	!	!	!	!	!	!	!LO:LB:g=original	!	!	!	!	!	!
=114	=114	=114	=114	=114	=114	=114	=114	=114	=114	=114	=114	=114	=114	=114
!	!	!	!	!	!	!	!	!LO:TX:t=P:problem=mixed beam	!	!	!	!	!	!
.	2r	2ryy	2r	.	8F#/L	.	8d\L	8D\L	8f#/L	.	8dd\L	.	2r	.
.	.	.	.	.	16.F#/L	.	16.d\L	16.DD/L	16.f#/L	.	16.dd\L	.	.	.
.	.	.	.	.	32F#/JJk	.	32d\JJk	32DD/JJk	32f#/JJk	.	32dd\JJk	.	.	.
.	.	.	.	.	8F#/	.	8d\	8DD/	8f#/	.	8dd\	.	.	.
.	.	.	.	.	8r	.	8r	8r	8r	.	8r	.	.	.
==	==	==	==	==	==	==	==	==	==	==	==	==	==	==
*-	*-	*-	*-	*-	*-	*-	*-	*-	*-	*-	*-	*-	*-	*-
!!!system-decoration: [(g1)][(g2)][(g3)]g4
!!!RDF**kern: | = vertical stroke
!!!RDF**kern: > = above
!!!RDF**kern: < = below
!!!ENC: Katarzyna Serwa
!!!END: 2022-02-27
!!!ENC: Krzysztof Stępień
!!!END: 2020-07-18
!!!YEC: Copyright 2022 Narodowy Instytut Fryderyka Chopina (https://polishscores.org)
!!!YEM: License CC-BY-4.0 (https://creativecommons.org/licenses/by/4.0)
